!!!!SEGMENT: pl-wn--mus-iii-70-268--002_zelenski-wladyslaw--sonate-op-30-allegretto.krn
!!!cenid: 18xx:3711
!!!COM: Żeleński, Władysław
!!!COM-rismid: pe41024455
!!!CDT:
!!!CNT:
!!!OPR: Sonate op. 30
!!!OTL: Allegretto
!!!OMV: 002
!!!PDT: 1879
!!!AGN:
!!!SMS-siglum: PL-Wn
!!!SMS-shelfmark: Mus.III.70.268
!!!SMS-shelfwork: M
!!!SMS-variant:
!!!SMS-altvar:
!!!NIFC-rismid:
!!!URL-scan: https://polona.pl/item/sonate-pour-piano-et-violon-op-30,NTgxNDg1Mw/2/#info:metadata
!!!ONB-nifc: UWAGA: części Sonaty: 1. Allegro non troppo, 2. Allegretto, 3. Molto sostenuto
!!!key: d
**kern	**dynam	**kern	**dynam	**kern	**dynam
*part2	*part2	*part2	*part2	*part1	*part1
*staff3	*	*staff2	*	*staff1	*
*I"Piano.	*	*I"Piano.	*	*I"Violon.	*
*I'pf	*	*I'pf	*	*I'vl	*
*Ipiano	*	*Ipiano	*	*Ivioln	*
*ICklav	*	*ICklav	*	*ICstr	*
*clefF4	*	*clefG2	*	*clefG2	*
*k[b-]	*	*k[b-]	*	*k[b-]	*
*d:	*	*d:	*	*d:	*
*M3/4	*	*M3/4	*	*M3/4	*
*MM132	*	*MM132	*	*MM132	*
*	*	*	*	*cuenotes	*
*>[A,A,B,B]	*	*>[A,A,B,B]	*	*>[A,A,B,B]	*
*>A	*	*>A	*	*>A	*
!	!	!	!	!LO:TX:a:i:t=Allegretto. [quarter]=132	!
4r	.	[4a/	p	4r	.
=1	=1	=1	=1	=1	=1
*	*	*^	*	*	*
!	!	!LO:TX:b:i:t=semplice	!	!	!	!
(4D'\	.	4a/]	4rffyy	.	2.r	.
.	.	(8qbn/	.	.	.	.
4d'\	.	(8a/L)	2f\	.	.	.
.	.	8g#X/	.	.	.	.
4D'\)	.	8a/	.	.	.	.
.	.	8b/J)	.	.	.	.
=2	=2	=2	=2	=2	=2	=2
(4A'\	.	(2cc/	4r	.	2.r	.
4c'\	.	.	8e\L	.	.	.
.	.	.	8f#X\J	.	.	.
4E'\)	.	4bn/	[4g\	.	.	.
=3	=3	=3	=3	=3	=3	=3
!	!	!LO:TX:b:i:t=simile	!	!	!	!
4C/	.	8a/)	8g\]	.	2.r	.
.	.	8r	8ryy	.	.	.
.	.	8qbn/	.	.	.	.
4AA/	.	(8a/L	4g\	.	.	.
.	.	8g#X/	.	.	.	.
4C/	.	8a/	4gn\	.	.	.
.	.	8b/J	.	.	.	.
=4	=4	=4	=4	=4	=4	=4
4D\	.	8f#X/L 8a	4c\	.	2.r	.
.	.	8bn/J	.	.	.	.
4G\	.	[2g/)	[2Bn/	.	.	.
4GG/	.	.	.	.	.	.
=5	=5	=5	=5	=5	=5	=5
4G\	.	4g/]	4B/]	.	2.r	.
.	.	8qa/	.	.	.	.
4B-X\	.	(>8g/L	4ryy	.	.	.
.	.	8f#X/	.	.	.	.
4F\	.	8g/	4ryy	.	.	.
.	.	8a/J	.	.	.	.
!!LO:LB:g=original
=6	=6	=6	=6	=6	=6	=6
4E\	.	2b-/	4r	.	2.r	.
4G\	.	.	4d\	<	.	.
4AA/	.	8a/L	[4c#X\	.	.	.
.	.	8g/J)	.	[	.	.
=7	=7	=7	=7	=7	=7	=7
4D\	.	8f/	8c#\]	.	2.r	.
.	.	8r	8ryy	.	.	.
.	.	8qg/	.	p	.	.
4BB-/	.	(8f/L	4d\	.	.	.
.	.	8e/	.	.	.	.
4GG/	.	8f/	4d\	.	.	.
.	.	8g/J	.	.	.	.
=8	=8	=8	=8	=8	=8	=8
*	*	*	*	*	*cue	*
4AA/	.	8e/L	4G\ 4c#X	.	4r	.
.	.	8f/J	.	.	.	.
4D\	.	[2d/	[2F/	.	4r	.
4AA/	.	.	.	.	[4a/	p
=9	=9	=9	=9	=9	=9	=9
!	!	!	!	!	!LO:TX:b:i:t=semplice	!
4DD/	.	4d/])	4F/]	.	4a/]	.
.	.	.	.	.	8qbn/	.
4r	.	4r	4ryy	.	8a/L	.
.	.	.	.	.	8g#X/	.
4r	.	4r	4ryy	.	8a/	.
.	.	.	.	.	8b/J	.
=10	=10	=10	=10	=10	=10	=10
4r	.	4r	4ryy	.	(2cc\	.
4A\	.	(8e/L	4c\	p	.	.
.	.	8f#X/J	.	.	.	.
4E\	.	[4g/	4Bn\	.	4bn\	.
=11	=11	=11	=11	=11	=11	=11
4C/	.	4g/])	4e/	.	8a/)	.
.	.	.	.	.	8r	.
.	.	.	.	.	8qbn/	.
4AA/	.	4g/	(4e'/	.	8a/L	.
.	.	.	.	.	8g#X/	.
4C/	.	4g/	4e'/)	.	8a/	.
.	.	.	.	.	8b/J	.
=12	=12	=12	=12	=12	=12	=12
4D\	.	4f#X/	4c\	.	8a/L	.
.	.	.	.	.	8bn/J	.
(8GG\L	.	[2g/	4Bn\	.	[2g/	.
8D\	.	.	.	.	.	.
8G\	.	.	4r	.	.	.
8A\J	.	.	.	.	.	.
*	*	*v	*v	*	*	*
!!LO:LB:g=original
=13	=13	=13	=13	=13	=13
4B-X\)	.	4g/]	.	8g/]	.
.	.	.	.	8r	.
.	.	.	.	8qa/	.
4r	.	4r	.	8g/L	.
.	.	.	.	8f#X/	<
4r	.	4r	.	8g/	.
.	.	.	.	8a/J	.
=14	=14	=14	=14	=14	=14
*	*	*^	*	*	*
4r	.	4r	4ryy	.	(2b-\	.
4E\	.	(4g/	4d/	<	.	.
4A\	.	8f/L	(<4c#X\	.	8a/L	.
.	.	8e/J	.	[	8g/J	[[
=15	=15	=15	=15	=15	=15	=15
4D\	.	4f/)	4c/)	.	8f/)	.
.	.	.	.	.	8r	.
.	.	.	.	.	8qg/	p
4BB-/	.	4f/	[4d'/	p	8f/L	.
.	.	.	.	.	8e/	.
4GG/	.	4f/	4d'/]	.	8f/	.
.	.	.	.	.	8g/J	.
=16	=16	=16	=16	=16	=16	=16
4AA/	.	(4c#X/	8G\L	>	8e/L	>
.	.	.	8A\J	.	8f/J	.
4D\	.	8d/L)	8F\	]	4d/	]]
.	.	(>8d/	8ryy	p	.	.
4DD/	.	8e/	4ryy	.	4r	.
.	.	8f/J	.	.	.	.
=17	=17	=17	=17	=17	=17	=17
!	!	!LO:TX:b:i:t=poco più animato	!	!	!LO:TX:a:i:t=poco più animato	!
[2.CC/	.	8g:/L)	4E:\ 4B-:	.	4r	.
.	.	(<8a/	.	.	.	.
.	.	8b-/)	2ryy	<	8r	.
.	.	(<[8b-/	.	.	8c/L	p
.	.	8b-/] 8gg	.	.	8e/	.
.	.	8a/J 8ff	.	[[	8f/J	.
=18	=18	=18	=18	=18	=18	=18
4CC/]	.	4ee\	8g\)	.	(8g\L	.
.	.	.	8rff	.	8a\	<
8r	.	(8ee/L	4r	.	8b-\)	.
(8C\L	<	8dd/J	.	.	(8b-\	.
8E\	.	[4cc/	8r	.	8gg\	.
8F\J	.	.	8d\	.	8ff\J	[[
!!LO:LB:g=original
=19	=19	=19	=19	=19	=19	=19
8G\L	.	4cc/]	8e\L	.	8ee\)	.
8A\	.	.	8f\J	.	8r	.
8B-\)	[	8g/L	8g\	.	8ee\L	.
(8C\	.	8a/J	8r	.	8dd\J	.
8D\	.	[4b-/	8r	.	(4cc\	.
8E\J	.	.	8c\	.	.	.
=20	=20	=20	=20	=20	=20	=20
4F\	.	4b-/]	8d\L	.	4gg\	>
.	.	.	8e\J	.	.	.
4FF'/)	.	4a/)	4f\	>	8ff\L)	.
.	.	.	.	.	8f\	]
[4FF/	.	4r	4ryy	]]	8a\	.
.	.	.	.	.	8b-\J	.
*	*	*v	*v	*	*	*
=21	=21	=21	=21	=21	=21
[2.FFF/ 2.FF_	.	4F:/ 4e-X: 4a:	.	(8cc\L	<
.	.	.	.	8dd\	.
.	.	8r	.	8ee-X\)	.
.	.	(8f/L	.	(8ee-\	.
.	.	8a/	.	8ccc\	.
.	.	8b-/J)	.	8bb-\J	[[
=22	=22	=22	=22	=22	=22
4FFF/] 4FF]	.	(8cc\L	<	8aa\)	.
.	.	8dd\	.	8r	.
8r	.	8ee-X\)	.	8aa\L	.
(8F\L	<	([8ee-\	.	8gg\J	.
8A\	.	8ee-\] 8ccc	.	[4ff\	.
8B-\J	.	8dd\J 8bb-	[	.	.
=23	=23	=23	=23	=23	=23
*	*	*^	*	*	*
8c\L	.	4aa\)	8cc\	.	4ff\]	.
8d\	[	.	8r	.	.	.
8e-X\)	.	(8aa/L	4r	.	8cc\L	.
(8F\J	.	8gg/J	.	.	8dd\J	.
8G\L	.	4ff/	8r	.	([4ee-X\	>
8A\J	.	.	(8f\	.	.	.
=24	=24	=24	=24	=24	=24	=24
4B-\	.	[4ff/	8g\L	>	4ee-\]	]]
.	.	.	8a\J	.	.	.
8BB-/)	.	8ff/])	8b-\)	.	8dd\)	.
8r	.	8r	8ryy	]	8r	.
4BB-^/	.	(8dd\L	4ryy	f	4r	.
.	.	8ee-X\J	.	.	.	.
!!LO:LB:g=original
=25	=25	=25	=25	=25	=25	=25
!	!	!LO:TX:b:i:t=risoluto	!	!	!	!
8BBB-/ 8BB-	.	8ff'\)	8ff\yy	.	4r	.
8r	.	8r	8ryy	.	.	.
!	!	!	!	!	!LO:TX:b:i:t=risoluto	!
(8e-X\L	.	(8cc/L	4f\ 4a-X	.	(4.aa-X\	f
8B-\J	.	8dd/J	.	.	.	.
4e-\	.	[4cc/	[4f\ [4a-	.	.	.
.	.	.	.	.	8cc\)	.
=26	=26	=26	=26	=26	=26	=26
4d\	.	4cc/]	4.f\] 4.a-]	.	((8dd\L	.
.	.	.	.	.	8ee-X\J	.
8BB-/)	.	8dd/)	.	.	8ff\)	.
8r	.	8r	8ryy	.	8r	.
[4BB-/	.	(8dd/L	4ryy	.	(8ff\L	.
.	.	8ee-X/J	.	.	8gg\J	.
*	*	*v	*v	*	*	*
=27	=27	=27	=27	=27	=27
8BBB-/ 8BB-]	.	8ff'/)	.	8aa-X\))	.
8r	.	8r	.	8r	.
*	*	*^	*	*	*
(8e-X\L	.	(8cc/L	4f\ 4a-X	.	(4.aa-\	.
8B-\J	.	8dd/J	.	.	.	.
4e-\	.	[4cc/	[4f\ [4a-	.	.	.
.	.	.	.	.	8cc\)	.
=28	=28	=28	=28	=28	=28	=28
4d\	.	4cc/]	4.f\] 4.a-]	.	((8dd\L	.
.	.	.	.	.	8ee\J	.
8BB-/)	.	8dd/)	.	.	8ff\)	.
8r	.	8r	8ryy	.	8r	.
[>4BB-/	.	(8dd/L	4ryy	.	(8ff\L	.
.	.	8ee-X/J	.	.	8gg\J	.
*	*	*v	*v	*	*	*
=29	=29	=29	=29	=29	=29
8BBB-/ 8BB-]	.	8ff'/)	.	4aa-X\))	.
8r	.	8r	.	.	.
*	*	*^	*	*	*
(8e-X\L	.	(8cc/L	4f\ 4a-X	.	(4ff\	.
8B-\J	.	8dd/J	.	.	.	.
4e-\	.	[4cc/	[4f\ [4a-	.	4ggg^<\	.
*	*	*v	*v	*	*	*
=30	=30	=30	=30	=30	=30
8d'\)	.	8f\] 8a-] 8cc]	.	8fff\)	.
8r	.	(8d/L)	.	8r	.
4BB-'/	.	8a-X/	.	(4ff\	.
.	.	8dd/	.	.	.
(4BBB-/	.	8cc/	.	4eee-X^\	.
.	.	8a-/J	.	.	.
!!LO:PB:g=original
=31	=31	=31	=31	=31	=31
*	*	*^	*	*	*
8BBB-/) 8BB-	.	8a-X:/ 8cc: 8ff:	4d/)	.	8ddd\)	.
8r	.	8r	.	.	8r	.
(8e-X\L	.	(8cc/L	4f\ 4a-	.	(4f/	.
8B-\J	.	8dd/J	.	.	.	.
4e-\	.	[4cc/	[4f\ [4a-	.	4gg^\	.
=32	=32	=32	=32	=32	=32	=32
8d'\)	.	8cc/L])	4f\] 4a-]	.	8ff\)	.
8r	.	(8d/	.	.	8r	.
4BB-/	.	8a-X/	4ryy	.	(4f/	.
.	.	8dd/	.	.	.	.
[4BBB-/	.	8cc/	4ryy	.	4ee-X\	.
.	.	8a-/J	.	.	.	.
*	*	*v	*v	*	*	*
=33	=33	=33	=33	=33	=33
8BBB-/] 8BB-	.	8d:/) 8a-X: 8cc: 8ff:	.	8dd\L)	.
8r	.	8r	.	8f'\	.
[2B-\ [2d	.	8r	.	8b-'\	.
.	.	8b-'/L	.	8dd'\	.
.	.	8a-'/	.	8ff'\	.
.	.	8g'/J	.	8gg'\J	.
=34	=34	=34	=34	=34	=34
4B-\] 4d]	.	8f'/L	.	[2.aa\	.
.	.	8c#X'/	.	.	.
4r	.	8d'/	.	.	.
.	.	8e'/	.	.	.
4r	.	8f'/	.	.	.
.	.	8g'/J	.	.	.
=35	=35	=35	=35	=35	=35
!	!	!	!	!LO:TX:b:i:t=dim.	!
2.r	.	8a-X'/L	.	4.aa\]	.
!	!	!LO:TX:b:i:t=dim.	!	!	!
.	.	8c#X'/	.	.	.
.	.	8d'/	.	.	.
.	.	8e'/	.	(8bb-'\L	.
.	.	8f'/	.	8aa-X'\	.
.	.	8g'/J	.	8gg'\J)	.
=36	=36	=36	=36	=36	=36
2.r	.	8a-X'/L	.	8ff'\L	.
.	.	8c#X'/	.	8ee'\	.
.	.	8d'/	.	8ff'\	.
.	.	8e'/	.	8gg'\	.
.	.	8f'/	.	8ff'\	.
.	.	8g'/J	.	8ee-X'\J	.
!!LO:LB:g=original
=37	=37	=37	=37	=37	=37
2.r	.	8a-X'/L	>	8dd\	.
.	.	8e'/	.	8r	.
.	.	8f'/	.	4r	.
.	.	8g'/	.	.	.
.	.	8a-'/	.	4r	.
.	.	8e'/J	.	.	.
=38	=38	=38	=38	=38	=38
2.r	.	8f'/L	]	4r	.
.	.	8g'/	.	.	.
.	.	8a-X'/	.	8r	.
.	.	8e'/	.	8g/L	pp
.	.	8f'/	.	8f/	.
.	.	8g'/J	.	8e/J	.
=39	=39	=39	=39	=39	=39
!	!	!LO:TX:b:i:t=calando	!	!LO:TX:b:i:t=calando	!
2.r	.	8a-X'/L	.	8d/L	.
.	.	8e'/	.	8c#X/	.
.	.	8f'/	.	8d/	.
.	.	8g'/	.	8e/	.
.	.	8a-'/	.	8f/	.
.	.	8e'/J	.	8c#/J	.
=40	=40	=40	=40	=40	=40
2.r	.	8f'/L	.	8d/L	.
.	.	8g'/	.	8e/J	.
.	.	8a-X'/	.	8f/	.
.	.	8f'/	.	8r	.
.	.	8g'/	.	4r	.
.	.	8g#X'/J	.	.	.
=41	=41	=41	=41	=41	=41
*	*	*^	*	*	*
!	!	!LO:TX:a:B:t=Tempo I.	!	!	!LO:TX:a:B:t=Tempo I.	!
4r	.	8a/	8a/yy	.	4r	.
.	.	8r	8ryy	.	.	.
!	!	!	!	!	!LO:TX:b:i:t=pizz.	!
.	.	8qbn/	.	.	.	.
(4d'\	.	(8a/L	2f\	.	4d/ 4f 4a	.
.	.	8g#X/	.	.	.	.
4D'\)	.	8a/	.	.	4d/ 4f 4a	.
.	.	8b/J	.	.	.	.
=42	=42	=42	=42	=42	=42	=42
(4A'\	.	2cc/	4r	.	4r	.
4c'\	.	.	8e\L	.	4A/ 4e 4cc	.
.	.	.	8f#X\J	.	.	.
4E'\)	.	4bn/	[4g\	.	4G/ 4e 4bn	.
!!LO:LB:g=original
=43	=43	=43	=43	=43	=43	=43
(4C'/	.	8a/)	8g\]	.	4r	.
.	.	8r	8r	.	.	.
.	.	8qbn/	.	.	.	.
4AA'/	.	(8a/L	4g\	.	4A/ 4g 4a	.
.	.	8g#X/	.	.	.	.
4C'/)	.	8a/	4gn\	.	4A/ 4g 4a	.
.	.	8b/J	.	.	.	.
=44	=44	=44	=44	=44	=44	=44
(4D'\	.	8f#X/L 8a	4c\	.	4c/ 4f#X 4a	.
.	.	8bn/J	.	.	.	.
4G'\	.	[2g/	[2Bn/	.	4Bn/ 4g 4bn	.
4GG'/)	.	.	.	.	4r	.
*	*	*v	*v	*	*	*
=45	=45	=45	=45	=45	=45
4G\	.	4B/]) 4g]	.	4r	.
.	.	8qa/	.	.	.
4B-X\	.	(>8g/L	.	4G/ 4d 4b-X	.
.	.	8f#X/	.	.	.
4F\	.	8g/	.	4G/ 4d 4b-	<
.	.	8a/J	.	.	.
=46	=46	=46	=46	=46	=46
*	*	*^	*	*	*
4E\	.	2b-/	4r	<	4r	.
4G\	.	.	4d\	.	4G/ 4d 4b-	.
4AA/	.	8a/L	[4c#X\	.	4c#X/ 4e	[[
.	.	8g/J	.	[	.	.
=47	=47	=47	=47	=47	=47	=47
4D\	.	4f/)	4c#/]	.	4A/ 4f	.
4BB-/	.	(8f/L	4d\	p	4A/ 4f 4dd	p
.	.	8e/	.	.	.	.
4GG/	.	8f/	4d\	.	4B-/ 4f 4dd	.
.	.	8g/J	.	.	.	.
=48	=48	=48	=48	=48	=48	=48
4AA/	.	8e/L	4G\ 4c#X	.	4A/ 4g 4cc#X	.
.	.	8f/J	.	.	.	.
4D\	.	4d/)	4F/	.	4A/ 4f 4dd	.
!	!	!	!	!	!LO:TX:b:t=arco	!
4AA/	.	4r	4ryy	.	[4aa\	.
!!LO:LB:g=original
=49	=49	=49	=49	=49	=49	=49
2.DD/ 2.D	.	4ryy	8r	.	4aa\]	.
.	.	.	(<8A\L	.	.	.
!	!	!	!	!	!LO:TX:b:i:t=con espress.	!
.	.	.	.	.	8qbbn/	.
.	.	2a/	8f\	mf	8aa\L	.
.	.	.	8Bn\	.	8gg#X\	.
.	.	.	8c\	.	8aa\	.
.	.	.	8d\J)	.	8bb\J	.
=50	=50	=50	=50	=50	=50	=50
2AAA/ 2AA	.	(2cc/	8e\L	.	2ccc\	.
.	.	.	8c\	.	.	.
.	.	.	8e\	.	.	.
.	.	.	8f#X\	.	.	.
4EE/	.	4bn/)	8g\	.	4bbn\	.
.	.	.	8Bn\J	.	.	.
=51	=51	=51	=51	=51	=51	=51
2.CC/ 2.C	.	(4.cc/	8g\L	.	4aa\	.
.	.	.	8A\	.	.	.
.	.	.	.	.	8qbbn/	.
.	.	.	8e\	.	8aa\L	.
.	.	8ryy	8bn\	.	8gg#X\	.
.	.	4ryy	8a\	.	8aa\	.
.	.	.	8g\J	.	8bb\J	.
=52	=52	=52	=52	=52	=52	=52
4DD/ 4D	.	4f#X/)	8c\L	.	8aa\L	.
.	.	.	8d\J	.	8bbn\J	.
[2GG/	.	8Bn/L 8g	4ryy	.	[2gg\	.
.	.	(8G/	.	.	.	.
.	.	8B/	4ryy	.	.	.
.	.	8d/J)	.	.	.	.
=53	=53	=53	=53	=53	=53	=53
4GG/]	.	2.g/	(8g\L	.	4gg\]	.
.	.	.	8G\	.	.	.
.	.	.	.	.	8qaa/	.
4BB-X/	.	.	8d\	.	8gg\L	.
.	.	.	8A\	.	8ff#X\	.
4FF/	.	.	8B-\	.	8gg\	.
.	.	.	8c\J)	.	8aa\J	.
=54	=54	=54	=54	=54	=54	=54
2EE/ 2E	.	(2g/	8B-\L	<	(2bb-\	.
.	.	.	8d\	.	.	.
.	.	.	8B-\	.	.	.
.	.	.	8G\J	.	.	.
(4AAA/ 4AA	.	8f/L	4A\	.	8aa\L	.
.	.	8c#X/J 8e	.	[	8gg\J	.
*	*	*v	*v	*	*	*
!!LO:LB:g=original
=55	=55	=55	=55	=55	=55
4BBB-/ 4BB-	.	8d/L)	.	8ff\)	.
.	.	(8F/	.	8r	.
.	.	.	.	8qgg/	.
4GG/)	.	8B-/	.	8ff\L	.
.	.	8c#X/	.	8ee\	.
(4GG/	.	8d/	.	8ff\	.
.	.	8e/J	.	8gg\J	.
=56	=56	=56	=56	=56	=56
*	*	*^	*	*	*
4AA/	.	4c#X/)	8G\L	.	8ee\L	.
.	.	.	8A\J	.	8ff\J	.
8DD/) 8D	.	8d/	4F/	.	8dd\	.
8r	.	8re	.	.	8r	.
4r	.	4r	4rgyy	.	[4aa^\	p
=57	=57	=57	=57	=57	=57	=57
*^	*	*	*	*	*	*
[2.e\	2.A\	.	([2.cc#X/	[2.g/	p >	4aa\]	.
.	.	.	.	.	.	(8gg\L	.
.	.	.	.	.	.	8ff\J	.
.	.	.	.	.	.	[4ee\	.
=58	=58	=58	=58	=58	=58	=58	=58
4e/]	[4D\	.	4cc#/]	4g/]	.	8ee\L]	>
.	.	.	.	.	.	8ff\J	.
8d/	8D\]	.	8dd/)	4f/	.	8dd\)	.
8r	8r	.	8re	.	]	8r	.
4r	4ryy	.	[4a/	4r	.	4r	]
*v	*v	*	*	*	*	*	*
=59	=59	=59	=59	=59	=59	=59
[2.AA/	.	4a/]	[2.G\ [2.c#X	pp	2.r	.
!	!	!LO:TX:a:i:t=riten.	!	!	!	!
.	.	8g/L	.	.	.	.
.	.	8f/J	.	.	.	.
.	.	4e/	.	.	.	.
=60	=60	=60	=60	=60	=60	=60
*^	*	*	*	*	*	*
4AA/_	[4DD/	.	8e/L	4G\] 4c#]	.	(4c#X/	pp
.	.	.	8f/J	.	.	.	.
8AA/]	4DD/]	.	8d/	4F/	.	8d/)	.
8r	.	.	8r	.	.	8r	.
(4D/	[4DD\	.	4r	4ryy	.	4r	.
*v	*v	*	*	*	*	*	*
*	*	*v	*v	*	*	*
!!LO:PB:g=original
=61!|:	=61!|:	=61!|:	=61!|:	=61!|:	=61!|:
*k[f#c#]	*	*k[f#c#]	*	*k[f#c#]	*
*^	*	*	*	*	*
!	!	!	!	!LO:DY:b	!LO:TX:a:B:t=Poco più mosso.	!
4D/) 4F# 4A	4DD\] 4AA	.	2.r	p	2.r	.
4D'/ 4F# 4A	4DD\ 4AA	.	.	<	.	.
4D'/ 4F# 4A	4DD\ 4AA	.	.	.	.	.
=62	=62	=62	=62	=62	=62	=62
4D'/ 4F# 4A	4DD'\ 4AA	.	2.r	.	4r	.
4D'/ 4F# 4A	4DD'\ 4AA	.	.	.	4r	.
4D'/ 4F# 4A	4DD'\ 4AA	.	.	.	8a/	.
.	.	.	.	[[	8r	.
=63	=63	=63	=63	=63	=63	=63
!	!	!	!	!LO:DY:b	!	!
4D/ 4F# 4A	4DD\ 4AA	.	2.r	f	[2.aa^\	f
!LO:TX:t=P:problem:mixed beam	!	!	!	!	!	!
(8G/L 8B/	4DD\ 4AA	.	.	.	.	.
8A/) 8c#/	.	.	.	.	.	.
(>8B>\ 8d>\	4DD\ 4AA	.	.	.	.	.
8c#>\J) 8e>\	.	.	.	.	.	.
*v	*v	*	*	*	*	*
=64	=64	=64	=64	=64	=64
4DD/ 4AA	.	4d'/ 4f#	.	8aa\L]	.
.	.	.	.	8ff#^\	.
4DD/ 4AA 4F#	.	4d'/ 4f#	.	8ee\	.
.	.	.	.	8dd\	.
4DD/ 4AA 4E	.	(4e^T/ 4g#X	.	8cc#\	.
.	.	.	.	8b\J	.
.	.	16qqf#/LL	.	.	.
.	.	16qqg#/JJ	.	.	.
=65	=65	=65	=65	=65	=65
4DD/ 4AA 4D	.	4f#/) 4a	.	8a/L	.
.	.	.	.	8f#^/	.
4DD/ 4AA 4F#	.	4d/ 4f#	.	8e/	.
.	.	.	.	8d/	.
4DD/ 4AA 4E	.	(4e^T/ 4g#X	.	8c#/	.
.	.	.	.	8B/J	.
.	.	16qqf#/LL	.	.	.
.	.	16qqg#/JJ	.	.	.
=66	=66	=66	=66	=66	=66
(4DD/ 4AA	.	4f#/) 4a	.	4A/	.
4F#\)	.	4A/ 4c#	.	4r	.
(4F#\	.	(4A/ 4c#	.	4r	.
=67	=67	=67	=67	=67	=67
*	*	*^	*	*	*
4FF#/)	.	4a/)	4f#/	.	4r	.
.	.	8qd#X/	.	.	.	.
4FFF#/ 4FF#	.	(8c#/L	4A\	.	4r	.
.	.	8B#X/	.	.	.	.
!	!	!	!	!	!LO:TX:b:i:t=dolce	!
4FF#/ 4F#	.	8c#/	4A\	.	(4aa\	p
.	.	8d#/J	.	.	.	.
!!LO:LB:g=original
=68	=68	=68	=68	=68	=68	=68
4CC#/ 4C#	.	4e/)	4G#X/	.	4gg#X\)	.
.	.	8qf#/	.	.	.	.
4EE/ 4E	.	(8e/L	4G#\	.	8gg#\L	.
.	.	8d#X/	.	.	8ff#\J	.
4BBB/ 4BB	.	8e/	4G#\	.	[4ee\	.
.	.	8f#/J	.	.	.	.
=69	=69	=69	=69	=69	=69	=69
4AAA#X/ 4AA#X	.	4gn/)	4e/	.	4ee\]	.
4CC#/ 4C#	.	(2g^/	8e\L	.	8ggn\L	.
.	.	.	8d\	.	8ff#\	.
4AAA#/ 4AA#	.	.	8c#\	.	8ee\	.
.	.	.	8e\J	.	(8gg\J	.
=70	=70	=70	=70	=70	=70	=70
4BBB/ 4BB	.	8f#/)	4d/	.	8ff#\)	.
.	.	8r	.	.	8r	.
4DD/ 4D	.	[2f#/	(8d\L	.	8ff#\L	.
.	.	.	8c#\	.	8ee\	.
4AAA/ 4AA	.	.	8B\	.	8dd\	.
.	.	.	8c#\J	.	(8ee\J	.
=71	=71	=71	=71	=71	=71	=71
4GGG#X/ 4GG#X	.	8f#/]	8d\L	.	8ff#\)	.
.	.	8r	8c#\)	.	8r	.
4EEE/ 4EE	.	[2e/	8B\	.	(2g#Xt/	.
.	.	.	8d\	>	.	.
4EE/ 4E	.	.	8c#\	.	.	.
.	.	.	8B\J	.	.	.
.	.	.	.	.	16qqf#/LL)	.
.	.	.	.	]]	16qqg#/JJ	.
=72	=72	=72	=72	=72	=72	=72
*>A1	*	*>A1	*	*	*>A1	*
.	.	16qqc#/LL	.	.	.	.
.	.	16qqB/JJ	.	.	.	.
4AAA/ 4AA	.	8e/]	4A/	.	2a/	.
.	.	8r	.	.	.	.
4AAA/ 4AA	.	2ryy	4A'/	.	.	.
(4AA/	.	.	(4A/	.	4r	.
*	*	*v	*v	*	*	*
=73:|!	=73:|!	=73:|!	=73:|!	=73:|!	=73:|!
*>A2	*	*>A2	*	*>A2	*
.	.	16qqc#/LL	.	.	.
.	.	16qqB/JJ	.	.	.
4AAA/) 4AA	.	8A/) 8g	.	4a/	.
.	.	8r	.	.	.
4AAA/ 4AA	.	4A'/	.	4r	.
!	!	!	!	!LO:TX:b:i:t=cantabile	!
4AAA/ 4AA	.	4A'/	.	4a/	.
=74	=74	=74	=74	=74	=74
*>B	*	*>B	*	*>B	*
*^	*	*	*	*	*
!LO:TX:t=P:problem:mixed beam	!	!	!	!LO:DY:b	!	!
8E/L	[2.CC#\	.	8r	p	(2aa\	.
8B-X/	.	.	8ryy	.	.	.
8e>\	.	.	4ryy	.	.	.
8B-/	.	.	.	.	.	.
8E/J	.	.	4ryy	.	4gg\)	.
8r	.	.	.	.	.	.
!!LO:LB:g=original
=75	=75	=75	=75	=75	=75	=75
!LO:TX:t=P:problem:mixed beam	!	!	!	!	!	!
(8A/L	2.CC#\]	.	2.r	.	(4ffn\	.
8an>\	.	.	.	.	.	.
8A/	.	.	.	.	4ee\)	.
8Fn/	.	.	.	.	.	.
8A/	.	.	.	.	(4dd\	.
8a>\J)	.	.	.	.	.	.
=76	=76	=76	=76	=76	=76	=76
!LO:TX:t=P:problem:mixed beam	!	!	!	!	!	!
(8B-X/L	[2.CC#\	.	2.r	.	4ccn\)	<
8E/	.	.	.	.	.	.
8B-/	.	.	.	.	4dd\	.
8g>\	.	.	.	.	.	.
8B-/	.	.	.	.	4ee\	.
8E/J)	.	.	.	.	.	.
=77	=77	=77	=77	=77	=77	=77
(8A/L	2.CC#\_	.	2.r	.	(4ffn~\	.
8cn/	.	.	.	.	.	.
8fn/	.	.	.	.	4gg~\	.
8c/	.	.	.	.	.	.
8f/	.	.	.	.	4aa~\)	[[
8a/J)	.	.	.	.	.	.
*v	*v	*	*	*	*	*
=78	=78	=78	=78	=78	=78
!	!	!LO:TX:b:i:t=espress.	!	!	!
.	.	8qe/	.	8qaa/	.
8CC#\L]	.	2.ee\	.	(2aaa\	.
(8e\	.	.	.	.	.
8B-X\ 8cn 8a	.	.	.	.	.
8e\	.	.	.	.	.
8B-\ 8c 8g	.	.	.	4ggg\)	.
8e\J)	.	.	.	.	.
=79	=79	=79	=79	=79	=79
*^	*	*^	*	*	*
8ryy	(8Cn\L	.	2.a/ 2.aa	4raa	.	4fffn\	.
8ryy	8cn\	.	.	.	.	.	.
4fn/	8A\	.	.	(4ffn\	.	(4fff\	.
.	8c\	.	.	.	.	.	.
4e/	8A\	.	.	4ee\)	.	4eee\)	.
.	8c\J)	.	.	.	.	.	.
=80	=80	=80	=80	=80	=80	=80	=80
8ryy	(8BB\L	.	2.dd#X/	(>4ccn\	.	(4ddd#X\	.
8ryy	8B\	.	.	.	.	.	.
4d#X/	8F#X\ 8A	.	.	4b\	.	4eee\)	<
.	8B\	.	.	.	.	.	.
4f#/	8F#\ 8A	.	.	4a\)	.	[4fff#X\	[[
.	8B\J)	.	.	.	.	.	.
=81	=81	=81	=81	=81	=81	=81	=81
8ryy	(8EE\L	.	(4ff#/	2.g#X\	.	4fff#\]	.
8ryy	8B\	.	.	.	.	.	.
4c#/	8E\ 8G#X	.	4ee/	.	.	4eee\	.
.	8B\	.	.	.	.	.	.
4dn/	8E\ 8G#	.	4ddn/)	.	.	4dddn\	.
.	8B\J)	.	.	.	.	.	.
!!LO:LB:g=original
=82	=82	=82	=82	=82	=82	=82	=82
8ryy	(8AA\L	.	(4cc#/	4b\	.	(4ccc#\	.
8ryy	8A\	.	.	.	.	.	.
!	!	!	!LO:TX:b:i:t=cresc.	!	!	!	!
4B/	8E\ 8Gn	.	4dd/	4a\	.	4ddd\)	.
.	8A\	.	.	.	.	.	.
!	!	!	!	!	!	!LO:TX:b:i:t=cresc.	!
4c#/	8E\ 8G	.	4ee/)	4gn\	.	[4eee\	.
.	8B\J)	.	.	.	.	.	.
=83	=83	=83	=83	=83	=83	=83	=83
8ryy	(8DD\L	.	(4ee/	[2.f#\	.	4eee\]	.
8ryy	8A\	.	.	.	.	.	.
4d/	8F#\	.	4dd/	.	.	(4ddd\	.
.	8A\	.	.	.	.	.	.
4e/	8F#\	.	4cc#/	.	.	4ccc#\	.
.	8A#X\J)	.	.	.	.	.	.
*v	*v	*	*	*	*	*	*
=84	=84	=84	=84	=84	=84	=84
4GG/	.	4b/)	8f#\L]	.	4bb\)	.
.	.	.	8B\	p	.	.
(4G\	.	(4b/	8c#\	.	(4bb\	p
.	.	.	8B\	.	.	.
4FF#/	.	4a/	8d#X\	.	4dd#X\	.
.	.	.	8B\J	.	.	.
*	*	*v	*v	*	*	*
=85	=85	=85	=85	=85	=85
4EE/)	.	8e/L) 8g	.	4ee\)	.
.	.	(>8B/	<	.	.
(4G\	.	8e/	.	4ff#\	.
.	.	8g/	.	.	.
4DD/	.	8a#X/	.	[4gg\	.
.	.	[>8b/J	[[	.	.
=86	=86	=86	=86	=86	=86
*^	*	*^	*	*	*
*	*^	*	*	*	*	*	*
8CC#/L)	8ryy	4ryy	.	4b/]	2e\ 2g	.	4gg\]	.
(<8C#/yy	4.C#\	.	.	.	.	.	.	.
8G/	.	(<4G\	.	4a/)	.	.	([2a^/	.
8A/J	.	.	.	.	.	.	.	.
[4e/	(4C#\) [4G)	[4A/	.	8r	4ryy	.	.	.
.	.	.	.	(8gg/	.	<	.	.
*	*v	*v	*	*	*	*	*	*
*	*	*	*v	*v	*	*	*
=87	=87	=87	=87	=87	=87	=87
8A/] 8e]	8C#\) 8G]	.	8ee/L	.	2.a/_	.
8r	8ryy	.	8a/	[	.	.
4r	4ryy	.	8g/	.	.	.
.	.	.	8e/	.	.	.
4CC#/ [4AA	4ryy	.	8A/	.	.	.
.	.	.	8G/J	.	.	.
*v	*v	*	*	*	*	*
=88	=88	=88	=88	=88	=88
*ped	*	*	*	*	*
8CC#/ 8AA]	.	8F#/)	.	4a/])	.
8r	.	8r	.	.	.
*	*	*clefF4	*	*	*
4DD/ 4AA	.	4D\ 4F# 4A	ff	4d/ 4f# 4a	ff
4DD/ 4AA	.	4D\ 4F# 4A	.	4d/ 4f# 4a	.
!!LO:LB:g=original
=89	=89	=89	=89	=89	=89
4DD/ 4AA	.	4D\ 4F# 4A	.	4d/ 4f# 4a	.
8r	.	4r	.	4d/ 4f# 4a	.
(8AA\L	.	.	.	.	.
*	*	*clefG2	*	*	*
8A\J)	.	8r	.	4d/ 4f# 4a	.
8r	.	(8A/	.	.	.
=90	=90	=90	=90	=90	=90
*	*	*	*	*^	*
8r	.	8f#/)	.	4f#/ 4a	4d/	.
(8A\L	.	8r	.	.	.	.
8a\J)	.	8r	.	(8b/L	4d\	.
8r	.	(8a\L	.	8cc#/J	.	.
[4A\	.	8aa\J)	.	8dd/L	4d\	.
.	.	(8aa\	.	8ee/J	.	.
*	*	*	*	*v	*v	*
=91	=91	=91	=91	=91	=91
8D\ 8A]	.	8aa\L) 8aaa	.	4d/) 4ff#	.
*Xped	*	*	*	*	*
8r	.	8ff#^\ 8fff#	.	.	.
[2DD/ [2AA	.	(8ee\ 8eee	.	4d/ 4a 4ff#	.
.	.	8dd\) 8ddd	.	.	.
.	.	8cc#'\ 8ccc#	.	4dT/ 4b 4gg#X	.
.	.	8b'\J 8bb	.	.	.
.	.	.	.	(16qqff#/LL	.
.	.	.	.	16qqgg#/JJ)	.
=92	=92	=92	=92	=92	=92
8DD/] 8AA]	.	8a'/L 8aa	.	4d/ 4a 4aa	.
8r	.	(8f#^/ 8ff#	.	.	.
[2DD/ [2AA	.	8e/) 8ee	.	4d/ 4a 4ff#	.
.	.	8d'/ 8dd	.	.	.
.	.	8c#'/ 8cc#	.	4dT/ 4a 4gg#X	.
.	.	8B'/J 8b	.	.	.
.	.	.	.	(16qqff#/LL	.
.	.	.	.	16qqgg#/JJ)	.
=93	=93	=93	=93	=93	=93
4DD/] 4AA]	.	4A/ 4a	.	(4d/ 4a 4aa	.
8r	.	8r	.	4cc#\)	.
8B'\L	.	8e#X'/L	>	.	.
8A'\	.	8f#'/	.	[4cc#\	.
8G#X'\J	.	8g#X'/J	]	.	.
=94	=94	=94	=94	=94	=94
!	!	!LO:TX:b:i:t=legg.	!	!	!
8F#'\L	.	8a'/L	.	4cc#\]	.
8G#X'\	.	8b'/	.	.	.
.	.	.	.	8qdd#X/	p
8A'\	.	8cc#'/	.	(8cc#\L	.
8F#'\	.	8r	.	8b#X\	.
8B'\	.	8d#X'/	.	8cc#\	.
8A'\J	.	8f#'/J	.	8ddn\J	.
=95	=95	=95	=95	=95	=95
8Gn'\L	.	8b'/L	.	4ee\)	.
8F#'\	.	8d#X'/	.	.	.
.	.	.	.	8qff#/	.
8E'\	.	8e'/	.	8ee\L	.
8A'\	.	8f#'/	.	8dd#X\	.
8G'\	.	8g'/	.	8ee\	.
8F#'\J	.	8a'/J	.	8ff#\J	.
!!LO:PB:g=original
=96	=96	=96	=96	=96	=96
*	*	*^	*	*	*
8E\L	.	8b\	8b\yy 8b	.	4ggn\	.
8F#'\	.	8r	8ryy	.	.	.
8E'\	.	(2g/	8A#X'\L	.	(8gg\L	<
8D'\	.	.	8B'\	.	8ff#\)	.
8C#'\	.	.	8c#'\	.	8ee'\	.
8E'\J	.	.	8A#'\J	.	8gg'\J	[
=97	=97	=97	=97	=97	=97	=97
8D'/L	.	8f#/)	4B/	.	4ff#\	.
8C#'/	.	8r	.	.	.	.
8BB'/	.	2f#/	8d'\L	.	8ff#'\L	.
8C#'/	.	.	8c#'\	.	8ee'\	.
8D'/	.	.	8B'\	.	8dd'\	.
8BB'/J	.	.	[8d'\J	.	8ff#'\J	.
=98	=98	=98	=98	=98	=98	=98
8GG'/L	.	8b/	4d/]	.	4ee\	p
8FF#'/	.	8re	.	.	.	.
8GG'/	.	8B/L	4ryy	>	8ee'\L	>
8EE'/J	.	8G/J	.	.	8gg'\	.
(4AA/	.	4c#/	8A\L	]	8ff#'\	.
.	.	.	8G\J	.	8ee'\J	]]
*	*	*v	*v	*	*	*
=99	=99	=99	=99	=99	=99
4D\)	.	4F#/ 4d	.	4dd\	.
4DD/	.	4r	.	4r	.
4r	.	4a/	.	4r	.
=100	=100	=100	=100	=100	=100
!	!	!LO:TX:b:i:t=cantabile	!	!	!
.	.	8qdd/	.	.	.
8FFn\L	.	(2dd\ 2ddd	.	(2.e-X/ 2.a	p
(8fn\	.	.	.	.	.
8e-X\	.	.	.	.	.
8A\	.	.	.	.	.
8Fn\)	.	4ccn\ 4cccn	.	.	.
(8F\J	.	.	.	.	.
=101	=101	=101	=101	=101	=101
4FFn/)	.	4b-X\ 4bb-X	.	2.d/) 2.b-X	.
8r	.	4a\ 4aa	.	.	.
(8fn\L	.	.	.	.	.
8d\	.	4g\) 4gg	.	.	.
8B-X\J	.	.	.	.	.
=102	=102	=102	=102	=102	=102
8Fn\L	.	(4fn\ 4ffn	.	(2.e-X/ 2.a	.
8fn\	.	.	.	.	.
8e-X\	.	4g\ 4gg	.	.	.
8A\	.	.	.	.	.
8F\)	.	4a\ 4aa	.	.	.
(8F\J	.	.	.	.	.
!!LO:LB:g=original
=103	=103	=103	=103	=103	=103
4FFn/)	.	4b-X\ 4bb-X	.	2d/) 2b-X	.
8r	.	4ccn\ 4cccn	.	.	.
(8fn\L	.	.	.	.	.
!	!	!	!	!LO:TX:b:i:t=espress.	!
8d\	.	4dd\) 4ddd	.	(4bb-X\	.
8B-X\J	.	.	.	.	.
=104	=104	=104	=104	=104	=104
8Fn\L	.	(2dd\ 2ddd	.	4aa\)	.
8fn\	.	.	.	.	.
8e-X\	.	.	.	4gg\	.
8A\	.	.	.	.	.
8F\)	.	4ccn\ 4cccn	.	4aa\	.
(8F\J	.	.	.	.	.
=105	=105	=105	=105	=105	=105
4FFn/)	.	4b-X\) 4bb-X	.	((4bb-X\	.
8r	.	(4b-\ 4bb-	.	4ddd\)	.
(8fn\L	.	.	.	.	.
8d\	.	4a\ 4aa	.	4ddd'\)	.
8B-X\J	.	.	.	.	.
=106	=106	=106	=106	=106	=106
8En\L	.	4g#X\ 4gg#X	.	(4ddd\	.
8e\	.	.	.	.	.
8d\	.	4a\ 4aa	.	4dd\)	.
8Bn\	.	.	.	.	.
8E\)	.	[4bn\ [4bbn	.	4dd\	.
(8E\J	.	.	.	.	.
=107	=107	=107	=107	=107	=107
*	*	*^	*	*	*
4EE-X/)	.	4bn\]) 4bb]	2.cc#/	.	(4ccn\	.
8r	.	(4a\ 4aa	.	.	4cccn\)	.
(8e-X\L	.	.	.	.	.	.
8cn\	.	4g\ 4gg	.	.	4ccc\	.
8A\J	.	.	.	.	.	.
*	*	*v	*v	*	*	*
=108	=108	=108	=108	=108	=108
8D\L	.	4f#\ 4ff#	.	(4cccn\	.
8d\	.	.	.	.	.
8cn\	.	4g\ 4gg	.	4ccn\)	>
8A\	.	.	.	.	.
8D\)	.	[4a\ [4aa	.	4cc\	]]
(8D\J	.	.	.	.	.
=109	=109	=109	=109	=109	=109
*	*	*^	*	*	*
4DD-X/)	.	4a\]) 4aa]	2.b-X/	.	(4b-X\	p
8r	.	(4g\ 4gg	.	.	4bb-X\)	.
(8d-X\L	.	.	.	.	.	.
8B-X\	.	4fn\ 4ffn	.	.	4bb-\	.
8G\J	.	.	.	.	.	.
*	*	*v	*v	*	*	*
!!LO:LB:g=original
=110	=110	=110	=110	=110	=110
8Cn\L	.	4e/ 4ee	.	4bb-X\	.
8cn\	.	.	.	.	.
8B-X\	.	4fn\ 4ffn	.	4r	.
8G\	.	.	.	.	.
8C\)	.	[4g\ [4gg	.	4r	.
(8C\J	.	.	.	.	.
=111	=111	=111	=111	=111	=111
*	*	*^	*	*	*
4CCn/)	.	4g\] 4gg]	2b-X/	.	4r	.
!	!	!LO:TX:b:i:t=cresc.	!	!	!LO:TX:b:i:t=cresc.	!
8r	.	4ee\)	.	.	(4b-X\	.
(8e\L	.	.	.	.	.	.
8B-X\	.	([4g\ [4gg	4ryy	.	4bb-X\)	.
8G\J	.	.	.	.	.	.
=112	=112	=112	=112	=112	=112	=112
4BBn/)	.	4g\] 4gg]	2bn/	.	4r	.
8r	.	4ee\)	.	.	(4bn\	.
(8e\L	.	.	.	.	.	.
8Bn\	.	([4g\ [4gg	4ryy	.	4bbn\)	.
8G\J	.	.	.	.	.	.
=113	=113	=113	=113	=113	=113	=113
8BB-X\L	.	4g\] 4gg]	2cc#X/	.	4r	.
8c#X\	.	.	.	.	.	.
8G\	.	4ee\)	.	.	(4cc#\	.
8E\	.	.	.	.	.	.
8BB-\)	.	[4g\ [4gg	4ryy	.	8.ccc#\L)	.
(8BB-\J	.	.	.	.	.	.
.	.	.	.	.	16ccc#\Jk	.
*	*	*v	*v	*	*	*
=114	=114	=114	=114	=114	=114
8AAA/)	.	4g\_ [4cc# 4gg_	.	[2.ggg\	f
8r	.	.	.	.	.
*ped	*	*	*	*	*
[2AA\ [2E [2G [2c#	.	8g\L] 8cc#] 8gg]	f	.	.
.	.	8ee\	.	.	.
.	.	8cc#\	.	.	.
.	.	8b-X\J	.	.	.
*Xped	*	*	*	*	*
=115	=115	=115	=115	=115	=115
8AA\] 8E] 8G] 8c#]	.	8g'/L	.	2.ggg\_	.
8r	.	8e'/	.	.	.
4r	.	8c#'/	.	.	.
.	.	8B-X'/	.	.	.
4r	.	8A'/	.	.	.
.	.	8G#X'/J	.	.	.
=116	=116	=116	=116	=116	=116
2.r	.	8A/	.	8ggg\L]	.
.	.	8r	.	8eee^\	.
.	.	4r	.	8ccc#\	.
.	.	.	.	8bb-X\	.
.	.	4r	.	8gg\	.
.	.	.	.	8ee\J	.
=117	=117	=117	=117	=117	=117
2.r	.	2.r	.	8cc#/L	>
.	.	.	.	8b-X/	.
.	.	.	.	8g/	.
.	.	.	.	8e/	.
.	.	.	.	8c#/	.
.	.	.	.	8B-X/J	]]
!!LO:LB:g=original
=118	=118	=118	=118	=118	=118
4r	.	4r	.	8A'/L	.
!	!	!	!	!LO:TX:b:i:t=calando	!
.	.	.	.	8c#'/	.
4AAA'/ 4AA	.	4G'/ 4c# 4e	.	8e'/	.
.	.	.	.	8fn'/	.
4r	.	4r	.	8g'/	.
.	.	.	.	8c#'/J	.
=119	=119	=119	=119	=119	=119
4r	.	4r	.	8e'/L	.
.	.	.	.	8fn'/	.
4BBB-X'/ 4BB-X	.	4c#'/ 4e 4g	.	8g'/	.
.	.	.	.	8c#'/	.
4r	.	4r	.	8d'/	.
.	.	.	.	8e'/J	.
=120	=120	=120	=120	=120	=120
4r	.	4r	.	8fn'/L	.
.	.	.	.	8g'/	.
4BBBn'/ 4BBn	.	4d'/ 4fn 4g#X	.	8a-X'/	.
.	.	.	.	8c#'/	>
4r	.	4r	.	8d'/	.
.	.	.	.	8e'/J	.
=121	=121	=121	=121	=121	=121
4r	.	4r	.	8fn'/L	.
.	.	.	.	8g'/	.
(4BBB-X'/ 4BB-X	.	([4d'/ [4g#X [4dd	pp	8a-X'/	]
!	!	!	!	!LO:TX:a:i:t=riten	!
.	.	.	.	(8f'/	.
!	!	!LO:TX:b:i:t=rit.	!	!	!
4BB-'\) 4B-X	.	4d'/]) 4g#] 4dd]	.	8g'/	.
.	.	.	.	8g#X'/J)	.
=122||	=122||	=122||	=122||	=122||	=122||
*k[fn cn b-]	*	*k[fn cn b-]	*	*k[fn cn b-]	*
!	!	!	!	!LO:TX:a:B:t=Tempo I.	!
8AA\ 8A	.	8e/ 8a 8cc#X	.	8a/	.
8r	.	8r	.	8r	.
.	.	8qbn/	pp	.	.
4r	.	(>8a/L	.	4r	.
.	.	8g#X/	.	.	.
4r	.	8a/	.	4r	.
.	.	8b/J	.	.	.
=123	=123	=123	=123	=123	=123
*	*	*^	*	*	*
4r	.	2cc/	4r	.	4r	.
(4A'\	.	.	8e\L	.	4r	.
.	.	.	8f#X\J	.	.	.
4E'\	.	4bn/	[4g\	.	(4bn\	pp
=124	=124	=124	=124	=124	=124	=124
4C'/	.	4a/)	4g\]	.	8ee\)	.
.	.	.	.	.	8r	.
!	!	!	!	!	!LO:TX:b:i:t=sotto voce	!
.	.	8qbn/	.	.	.	.
4AA'/	.	(8a/L	4g\	.	(4ee\	.
.	.	8g#X/	.	.	.	.
4C'/)	.	8a/	4gn\	.	4ee-X\)	.
.	.	8b/J	.	.	.	.
=125	=125	=125	=125	=125	=125	=125
(4D'\	.	8a/L	4c\ 4f#X	.	(4.dd\	.
.	.	8bn/J	.	.	.	.
4G'\	.	[2g/)	[2Bn/	.	.	.
.	.	.	.	.	8bn/L	.
4GG'/)	.	.	.	.	8g/	.
.	.	.	.	.	8f#X/J)	.
*	*	*v	*v	*	*	*
!!LO:LB:g=original
=126	=126	=126	=126	=126	=126
(4G'\	.	4B/] 4g]	.	(4fn/	.
.	.	8qa/	.	.	.
4B-X'\	.	(8g/L	.	4e/)	.
.	.	8f#X/	.	.	.
4F'\	.	8g/	<	(<[4d/	.
.	.	8a/J	.	.	.
=127	=127	=127	=127	=127	=127
*	*	*^	*	*	*
4E'\	.	2b-X/	4r	.	8d/L]	.
.	.	.	.	.	8g/J	.
4G'\	.	.	4d\	[[	8b-\)	.
.	.	.	.	.	8r	.
4AA'/)	.	8a/L	[4c#X\	.	(4c#X/	.
.	.	8g/J	.	.	.	.
=128	=128	=128	=128	=128	=128	=128
(4D'\	.	4f/)	4c#/]	.	8f/L)	.
.	.	.	.	.	8e/	.
.	.	8qg/	.	.	.	.
4BB-'/	.	(8f/L	4d\	.	(8d/	.
.	.	8e/	.	.	8c#X/)	.
4GG'/	.	8f/	4d\	.	(8d/	.
.	.	8g/J	.	.	8B-/J)	.
=129	=129	=129	=129	=129	=129	=129
4AA'/	.	8e/L	4G\ 4c#X	.	(8.A/L	.
.	.	8f/J	.	.	.	.
.	.	.	.	.	32Bn/LL	.
.	.	.	.	.	32c#X/JJJ	.
4D'\	.	[2d/	[2F/	.	8d/)	.
.	.	.	.	.	8r	.
4AA'/	.	.	.	.	[4a/	p
=130	=130	=130	=130	=130	=130	=130
4DD'/)	.	4d/])	4F/]	.	4a/]	.
!	!	!	!	!	!LO:TX:b:i:t=semplice	!
.	.	.	.	.	8qbn/	.
4r	.	4r	4ryy	.	8a/L	.
.	.	.	.	.	8g#X/	.
4r	.	4r	4ryy	.	8a/	.
.	.	.	.	.	8b/J	.
=131	=131	=131	=131	=131	=131	=131
4r	.	4r	4ryy	.	(2cc\	.
(4A'\	.	8e/L	(<4c\	p	.	.
.	.	8f#X/J	.	.	.	.
4E'\	.	4g/	4Bn/	.	4bn\	.
*	*	*v	*v	*	*	*
=132	=132	=132	=132	=132	=132
4C'/	.	4e/) 4g	.	8a/)	.
.	.	.	.	8r	.
.	.	.	.	8qbn/	.
4AA'/	.	(4e'/ 4g	.	8a/L	.
.	.	.	.	8g#X/	.
4C'/	.	4e'/) 4g	.	8a/	.
.	.	.	.	8b/J	.
=133	=133	=133	=133	=133	=133
4D\	.	(4c/ 4f#X	.	8a/L	.
.	.	.	.	8bn/J	.
8GG\L)	<	2Bn/ [2g	.	[2g/	.
(8D\	.	.	.	.	.
8G\	.	.	.	.	.
8A\J	[	.	.	.	.
=134	=134	=134	=134	=134	=134
4B-X\)	.	4g/])	.	4g/]	.
.	.	.	.	8qa/	<
4r	.	4r	.	8g/L	.
.	.	.	.	8f#X/	.
4r	.	4r	.	8g/	.
.	.	.	.	8a/J	[[
!!LO:PB:g=original
=135	=135	=135	=135	=135	=135
*	*	*^	*	*	*
4r	.	4r	4ryy	.	(2b-\	.
(<4E'\	.	4g/	(<4d\	.	.	.
4A'\	.	8f/L	[4c#X\	<	8a/L	.
.	.	8e/J	.	.	8g/J	.
=136	=136	=136	=136	=136	=136	=136
4D'\	.	8f/	4c#/])	[[	8f/)	.
.	.	8rg	.	.	8r	.
.	.	.	.	.	8qg/	.
4BB-'/	.	4f/	[4d'/	p	8f/L	p
.	.	.	.	.	8e/	.
4GG'/	.	4f/	4d'/]	.	8f/	.
.	.	.	.	.	8g/J	.
=137	=137	=137	=137	=137	=137	=137
!	!	!	!	!LO:HP:a	!	!
4AA'/	.	(4c#X/	8G\L	>	8e/L	>
.	.	.	8A\J	.	8f/J	.
4D'\	.	8d/L)	8F\	]	4d/	]
.	.	(8d/	8ryy	.	.	.
4DD'/)	.	8e/	4ryy	.	4r	.
.	.	8f/J)	.	.	.	.
=138	=138	=138	=138	=138	=138	=138
!	!	!LO:TX:b:i:t=poco più animato	!	!	!LO:TX:a:i:t=poco più animato	!
[2.CC/	.	(8g:/L	4E:\ 4B-:	.	4r	.
.	.	8a/	.	.	.	.
.	.	8b-/)	4ryy	.	8r	.
.	.	((8b-/	.	<	8c/L	p
.	.	8b-/) 8gg	4ryy	.	8d/	.
.	.	8a/J 8ff	.	[	8e/J	.
=139	=139	=139	=139	=139	=139	=139
4CC/]	.	4ee\)	8g\	.	(8g\L	<
.	.	.	8rff	.	8a\	.
8r	.	(8ee/L	4r	.	8b-\)	.
(8C\L	<	8dd/J	.	.	(8b-\	.
8E\	.	[4cc/	8r	.	8gg\	.
8F\J	.	.	(8d\	.	8ff\J	[[
=140	=140	=140	=140	=140	=140	=140
8G\L	.	4cc/]	8e\L	.	8ee\)	.
8A\	.	.	8f\J	.	8r	.
8B-\)	[	8g/L	8g\)	.	8ee\L	.
(8C\	.	8a/J	8r	.	8dd\J	.
8D\	.	[4b-/	8r	.	(4cc\	.
8E\J	.	.	(8c\	.	.	.
!!LO:LB:g=original
=141	=141	=141	=141	=141	=141	=141
4F\	.	4b-/])	8d\L	>	4gg\	>
.	.	.	8e\J	.	.	.
4FF'/)	.	4a/	4f\)	]	8ff\L)	.
.	.	.	.	.	8f\	.
[4FF/	.	4r	4ryy	.	8a\	]
.	.	.	.	.	8b-\J	.
*	*	*v	*v	*	*	*
=142	=142	=142	=142	=142	=142
[2.FFF/ 2.FF_	.	4F:/ 4e-X: 4a:	.	(8cc\L	.
.	.	.	.	8dd\	.
.	.	8r	.	8ee-X\)	.
.	.	(8f/L	.	(8ee-\	.
.	.	8a/	.	8ccc\	.
.	.	8b-/J	.	8bb-\J	.
=143	=143	=143	=143	=143	=143
4FFF/] 4FF]	.	8cc\L	<	8aa\)	.
.	.	8dd\	.	8r	.
8r	.	8ee-X\)	.	8aa\L	.
(<8F\L	<	[8ee-\J	.	8gg\J	.
8A\	.	(8ee-\L] 8ccc	.	[4ff\	.
8B-\J	.	8dd\J 8bb-	[	.	.
=144	=144	=144	=144	=144	=144
*	*	*^	*	*	*
8c\L	.	8cc\) 8aa	8cc\yy	.	4ff\]	.
8d\	.	8r	8ryy	.	.	.
8e-X\)	.	(8aa/L	4r	.	8cc\L	.
(8F\	[	8gg/J	.	.	8dd\J	.
8G\	.	[4ff/	8r	.	([4ee-X\	.
8A\J	.	.	(8f\	.	.	.
=145	=145	=145	=145	=145	=145	=145
4B-\)	.	4ff/_	8g\L	>	4ee-\]	>
.	.	.	8a\J	.	.	.
8BB-/	.	8ff/])	8b-\)	]	8dd\)	]
8r	.	8r	8ryy	.	8r	.
[4BB-/	.	(8dd\L	4ryy	f	4r	.
.	.	8ee-X\J	.	.	.	.
=146	=146	=146	=146	=146	=146	=146
!	!	!LO:TX:b:i:t=risoluto	!	!	!	!
8BBB-/ 8BB-]	.	8ff'\)	8ff\yy	.	4r	.
8r	.	8r	8ryy	.	.	.
!	!	!	!	!	!LO:TX:b:i:t=risoluto	!
(8e-X\L	.	(8cc/L	4f\ 4a-X	.	(4.aa-X\	f
8B-\J	.	8dd/J	.	.	.	.
4e-\	.	[4cc/	[4f\ [4a-	.	.	.
.	.	.	.	.	8cc\)	.
!!LO:LB:g=original
=147	=147	=147	=147	=147	=147	=147
4d\	.	4cc/]	4f\_ 4a-X_	.	((8dd\L	.
.	.	.	.	.	8ee-X\J	.
8BB-/)	.	8b-/)	8f\] 8a-]	.	8ff\)	.
8r	.	8r	8ryy	.	8r	.
[4BB-/	.	(8dd\L	4ryy	.	(8ff\L	.
.	.	8ee-X\J	.	.	8gg\J	.
=148	=148	=148	=148	=148	=148	=148
8BBB-/ 8BB-]	.	8ff\)	8ff\yy	.	8aa-X\))	.
8r	.	8r	8ryy	.	8r	.
(8e-X\L	.	(8cc/L	4f\ 4a-X	.	(4.aa-\	.
8B-\J	.	8dd/J	.	.	.	.
4e-\	.	[4cc/	[4f\ [4a-	.	.	.
.	.	.	.	.	8cc\)	.
=149	=149	=149	=149	=149	=149	=149
4d\	.	4cc/]	4f\_ 4a-_	.	((8dd\L	.
.	.	.	.	.	8ee-X\J	.
8BB-/)	.	8b-/)	8f\] 8a-]	.	8ff\)	.
8r	.	8r	8ryy	.	8r	.
[4BB-/	.	(8dd\L	4ryy	.	(8ff\L	.
.	.	8ee-X\J	.	.	8gg\J	.
=150	=150	=150	=150	=150	=150	=150
8BBB-/ 8BB-]	.	8ff'\)	8ff\yy	.	8aa-X\))	.
8r	.	8r	8ryy	.	8r	.
(8e-X\L	.	(8cc/L	4f\ 4a-X	.	(4ff\	.
8B-\J	.	8dd/J	.	.	.	.
4e-\	.	4cc/	[4f\ [4a-	.	4ggg^\	.
=151	=151	=151	=151	=151	=151	=151
8d\)	.	8cc/L)	8f\] 8a-]	.	8fff\)	.
8r	.	(8d/	8ryy	.	8r	.
4BB-/	.	8a-X/	4ryy	.	(4ff\	.
.	.	8dd/	.	.	.	.
[4BBB-/	.	8cc/	4ryy	.	4eee-X^\	.
.	.	8a-/J	.	.	.	.
=152	=152	=152	=152	=152	=152	=152
8BBB-/] 8BB-	.	8a-X:/ 8cc: 8ff:	4d:/)	.	8ddd\)	.
8r	.	8r	.	.	8r	.
(8e-X\L	.	(8cc/L	4f\ 4a-	.	(4f/	.
8B-\J	.	8dd/J	.	.	.	.
4e-\	.	4cc/	[4f\ [4a-	.	[4gg^\)	.
!!LO:LB:g=original
=153	=153	=153	=153	=153	=153	=153
8d'\)	.	8cc/L)	8f\] 8a-]	.	8gg\]	.
8r	.	(8d/	8ryy	.	8r	.
4BB-'/	.	8a-X/	4ryy	.	(4f/	.
.	.	8dd/	.	.	.	.
[4BBB-/	.	8cc/	4ryy	.	4ee-X\	.
.	.	8a-/J	.	.	.	.
*	*	*v	*v	*	*	*
=154	=154	=154	=154	=154	=154
8BBB-/] 8BB-	.	8d:/) 8a-X: 8cc: 8ff:	.	8dd\L)	.
8r	.	8r	.	8f'\	.
[2B-^\ [2d	.	8r	.	8b-'\	.
.	.	8b-'/L	.	8dd'\	.
.	.	8a-X'/	.	8ff'\	.
.	.	8g'/J	.	8gg'\J	.
=155	=155	=155	=155	=155	=155
8B-\] 8d]	.	8f'/L	.	[2.aa-X\	.
8r	.	8c#X'/	.	.	.
4r	.	8d'/	.	.	.
.	.	8e'/	.	.	.
4r	.	8f'/	.	.	.
.	.	8g'/J	.	.	.
=156	=156	=156	=156	=156	=156
2.r	.	8a-X'/L	>	4.aa-\]	>
.	.	8c#X'/	.	.	.
.	.	8d'/	.	.	.
.	.	8e'/	.	(8bb-~\L	.
.	.	8f'/	.	8aa-X~\	.
.	.	8g'/J	]]	8gg~\J)	]]
=157	=157	=157	=157	=157	=157
!	!	!LO:TX:b:i:t=dim.	!	!LO:TX:b:i:t=dim.	!
2.r	.	8a-X'/L	.	8ff'\L	.
.	.	8c#X'/	.	8ee'\	.
.	.	8d'/	.	8ff'\	.
.	.	8e'/	.	8gg'\	.
.	.	8f'/	.	8ff'\	.
.	.	8g'/J	.	8ee-X'\J	.
=158	=158	=158	=158	=158	=158
2.r	.	8a-X'/L	.	8dd\	.
.	.	8e'/	.	8r	.
.	.	8f'/	.	4r	.
.	.	8g'/	.	.	.
.	.	8a-'/	.	4r	.
.	.	8e'/J	.	.	.
!!LO:LB:g=original
=159	=159	=159	=159	=159	=159
2.r	.	8f'/L	.	4r	.
.	.	8g'/	.	.	.
.	.	8a-X'/	.	8r	.
.	.	8e'/	.	8g/L	pp
.	.	8f'/	.	8f/	.
.	.	8g'/J	.	8e/J	.
=160	=160	=160	=160	=160	=160
!	!	!LO:TX:b:i:t=calando	!	!LO:TX:b:i:t=calando	!
2.r	.	8a-X'/L	.	8d/L	.
.	.	8e'/	.	8c#X/	.
.	.	8f'/	.	8d/	.
.	.	8g'/	.	8e/	.
.	.	8a-'/	.	8f/	.
.	.	8e'/J	.	8c#/J	.
=161	=161	=161	=161	=161	=161
2.r	.	8f'/L	.	8d/L	.
.	.	8g'/	.	8e/J	.
.	.	8a-X'/	.	8f/	.
.	.	8f'/	.	8r	.
.	.	8g'/	.	4r	.
.	.	8g#X'/J	.	.	.
=162	=162	=162	=162	=162	=162
*	*	*^	*	*	*
!	!	!LO:TX:a:B:t=Tempo I.	!	!	!LO:TX:a:B:t=Tempo I.	!
4r	.	8a/	8a/yy	.	4r	.
.	.	8r	8ryy	.	.	.
!	!	!	!	!	!LO:TX:a:i:t=pizz.	!
.	.	8qbn/	.	p	.	.
(4d'\	.	(8a/L	2f\	.	4d/ 4f 4a	p
.	.	8g#X/	.	.	.	.
4D'\)	.	8a/	.	.	4d/ 4f 4a	.
.	.	8b-X/J)	.	.	.	.
=163	=163	=163	=163	=163	=163	=163
(4A'\	.	(2cc/	4r	.	4r	.
4c'\	.	.	8e\L	.	4A/ 4e 4cc	.
.	.	.	8f#X\J	.	.	.
4E'\	.	4bn/	[4g\	.	4G/ 4e 4bn	.
=164	=164	=164	=164	=164	=164	=164
4C'/	.	8a/)	8g\]	.	4r	.
.	.	8r	8ryy	.	.	.
.	.	8qbn/	.	.	.	.
4AA'/	.	(8a/L	4g\	.	4A/ 4g 4a	.
.	.	8g#X/	.	.	.	.
4C'/	.	8a/	4gn\	.	4A/ 4g 4a	.
.	.	8b/J	.	.	.	.
!!LO:PB:g=original
=165	=165	=165	=165	=165	=165	=165
4D'\	.	8a/L	4c\ 4f#X	.	4c/ 4f#X 4a	.
.	.	8bn/J	.	.	.	.
4G'\	.	[2g/	(2Bn\	.	4Bn/ 4g 4bn	.
4GG'/	.	.	.	.	4r	.
*	*	*v	*v	*	*	*
=166	=166	=166	=166	=166	=166
4G'\)	.	8B-/)) 8g]	.	4r	.
.	.	8r	.	.	.
.	.	8qa/	.	.	.
(4B-X'\	.	(>8g/L	.	4G/ 4d 4b-X	.
.	.	8f#X/	.	.	.
4F'\	.	8g/	.	4G/ 4d 4b-	.
.	.	8a/J	.	.	.
=167	=167	=167	=167	=167	=167
*	*	*^	*	*	*
4E'\	.	2b-/	4r	<	4r	.
4G'\	.	.	4d\	.	4G/ 4d 4b-	<
4AA'/	.	8a/L	[4c#X\	.	4c#X/ 4e	[
.	.	8g/J	.	[	.	.
=168	=168	=168	=168	=168	=168	=168
4D'\	.	8f/)	4c#/]	.	4A/ 4f	.
.	.	8r	.	.	.	.
.	.	8qg/	.	.	.	.
4BB-'/	.	8f/L	4d\	p	4A/ 4f 4dd	p
.	.	8e/	.	.	.	.
4GG'/)	.	8f/	4d\	.	4A/ 4f 4dd	.
.	.	8g/J	.	.	.	.
=169	=169	=169	=169	=169	=169	=169
4AA/	.	8e/L	4G\ 4c#X	.	4A/ 4g 4cc#X	.
.	.	8f/J	.	.	.	.
4D\	.	4d/	4F/	.	4A/ 4f 4dd	.
!	!	!	!	!	!LO:TX:a:t=arco	!
4AA/	.	4r	4ryy	.	[4aa\	.
=170	=170	=170	=170	=170	=170	=170
!	!	!	!	!	!LO:TX:b:i:t=con espress.	!
2.DD/ 2.D	.	8r	8ryy	.	4aa\]	.
!	!	!	!	!LO:DY:a	!	!
.	.	2a/	(8A\L	mf	.	.
.	.	.	.	.	8qbbn/	.
.	.	.	8f\	.	8aa\L	.
.	.	.	8Bn\	.	8gg#X\	.
.	.	.	8c\	.	8aa\	.
.	.	8ryy	8d\J)	.	8bb\J	.
=171	=171	=171	=171	=171	=171	=171
2AAA/ 2AA	.	(2cc/	8e\L	.	(2ccc\	.
.	.	.	8c\	.	.	.
.	.	.	8e\	.	.	.
.	.	.	8f#X\	.	.	.
4EE/	.	4bn/)	8g\	.	(4bbn\)	.
.	.	.	8Bn\J	.	.	.
!!LO:LB:g=original
=172	=172	=172	=172	=172	=172	=172
2.CC/ 2.C	.	(4.a/	8g\L	.	8aa\)	.
.	.	.	8A\	.	8r	.
.	.	.	.	.	8qbbn/	.
.	.	.	8e\	.	8aa\L	.
.	.	8ryy	8bn\	.	8gg#X\	.
.	.	4ryy	8a\	.	8aa\	.
.	.	.	8g\J	.	8bb\J	.
=173	=173	=173	=173	=173	=173	=173
4DD/ 4D	.	4a#X/	8c\L	.	8aa\L	.
.	.	.	8d\J	.	8bbn\J	.
[2GG/	.	8Bn/L) 8g	4ryy	.	[2gg\	.
.	.	(8G/	.	.	.	.
.	.	8B/	4ryy	.	.	.
.	.	8d/J	.	.	.	.
=174	=174	=174	=174	=174	=174	=174
4GG/]	.	2.g/	8g\L	.	4gg\]	.
.	.	.	8G\	.	.	.
.	.	.	.	.	8qaa/	<
4BB-X/	.	.	8d\	.	8gg\L	.
.	.	.	8A\	<	8ff#X\	.
4FF/	.	.	8B-\	.	8gg\	.
.	.	.	8c\J)	[	8aa\J	.
=175	=175	=175	=175	=175	=175	=175
2EE/ 2E	.	2g/	(<8B-\L	.	(2bb-\	.
.	.	.	8d\	.	.	.
.	.	.	8B-\	.	.	.
.	.	.	8G\J	.	.	.
(4AAA/ 4AA	.	8f/L	4A/	.	8aa\L	.
.	.	8c#X/J 8e	.	.	8gg\J	[[
*	*	*v	*v	*	*	*
=176	=176	=176	=176	=176	=176
4BBB-/ 4BB-	.	8d/L)	.	8ff\)	.
.	.	(8F/	.	8r	.
.	.	.	.	8qgg/	.
4GG/)	.	8B-/	.	8ff\L	.
.	.	8c#X/	.	8ee\	.
4GG/	.	8d/	.	8ff\	.
.	.	8e/J	.	8gg\J	.
=177	=177	=177	=177	=177	=177
*	*	*^	*	*	*
4AA/	.	4c#X/	8G\L	>	8ee\L	.
.	.	.	8A\J	.	8ff\J	.
8DD/	.	8d/	4F/)	]	8dd\	.
8r	.	8r	.	.	8r	.
4r	.	4r	4ryy	.	[4aa\	.
*	*	*v	*v	*	*	*
=178	=178	=178	=178	=178	=178
(2.A\ 2.e	.	[2.g/ [2.cc#X	>	4aa\]	.
.	.	.	.	8gg\L	.
.	.	.	.	8ff\J	.
.	.	.	]]	[4ee\	.
!!LO:LB:g=original
=179	=179	=179	=179	=179	=179
[4D\ 4e	.	4g/] 4cc#X]	.	8ee\L]	>
.	.	.	.	8ff\J	.
8D\]) 8d	.	8f/ 8dd	.	8dd\	]
8r	.	8r	.	8r	.
4r	.	[>4a/	.	4r	.
=180	=180	=180	=180	=180	=180
*	*	*^	*	*	*
!	!	!LO:TX:b:i:t=rit.	!	!	!LO:TX:a:i:t=riten.	!
[2.AA/	.	(4a/]	[2.G\ [2.c#X	pp	2.r	.
.	.	8g/L	.	.	.	.
.	.	8f/J	.	.	.	.
.	.	4e/	.	.	.	.
=181	=181	=181	=181	=181	=181	=181
*^	*	*	*	*	*	*
4AA/_	[4DD/	.	8e/L	4G\] 4c#]	.	(4c#X/	pp
.	.	.	8f/J)	.	.	.	.
8AA/]	4DD/]	.	8d/	4F/	.	8d/)	.
8r	.	.	8re	.	.	8r	.
(4D/	[4DD\	.	4ryy	4ryy	.	4r	.
*v	*v	*	*	*	*	*	*
*	*	*v	*v	*	*	*
=182!|:	=182!|:	=182!|:	=182!|:	=182!|:	=182!|:
*k[f#c#]	*	*k[f#c#]	*	*k[f#c#]	*
*^	*	*	*	*	*
!	!	!	!	!LO:DY:b	!LO:TX:a:B:t=Poco più mosso.	!
4D/) 4F# 4A	4DD\] 4AA	.	2.r	p	2.r	.
!	!	!	!	!LO:DY:a	!	!
4D/ 4F# 4A	4DD\ 4AA	.	.	<	.	.
4D/ 4F# 4A	4DD\ 4AA	.	.	.	.	.
=183	=183	=183	=183	=183	=183	=183
4D/ 4F# 4A	4DD\ 4AA	.	2.r	.	4r	.
4D/ 4F# 4A	4DD\ 4AA	.	.	.	4r	.
4D/ 4F# 4A	4DD\ 4AA	.	.	.	8a'/	.
.	.	.	.	[	8r	.
=184	=184	=184	=184	=184	=184	=184
!	!	!	!	!LO:DY:b	!	!
4D/ 4F# 4A	4DD\ 4AA	.	2.r	f	[2.aa\	f >
(<8G/L 8B/	4DD\ 4AA	.	.	.	.	.
8A/) 8c#/	.	.	.	.	.	]
N(>8B>\ 8d>\	4DD\ 4AA	.	.	.	.	.
8c#>\J 8e>\	.	.	.	.	.	.
=185	=185	=185	=185	=185	=185	=185
4AA/	4DD/	.	4d/N) 4f#	.	8aa\L]	.
.	.	.	.	.	8ff#^\	.
4F#/	4DD/ 4AA	.	4d'/ 4f#	.	8ee\	.
.	.	.	.	.	8dd\	.
4E/	4DD/ 4AA	.	(4e^T/ 4g#X	.	8cc#\	.
.	.	.	.	.	8b\J	.
.	.	.	16qqf#/LL	.	.	.
.	.	.	16qqg#/JJ	.	.	.
!!LO:LB:g=original
=186	=186	=186	=186	=186	=186	=186
4AA/ 4D	4DD/	.	4d/) 4f#	.	8a/L	.
.	.	.	.	.	8f#^/	.
4F#/	4DD/ 4AA	.	4d'/ 4f#	.	8e/	.
.	.	.	.	.	8d/	.
4E/	4DD/ 4AA	.	(4e^T/ 4g#X	.	8c#/	.
.	.	.	.	.	8B/J	.
*v	*v	*	*	*	*	*
.	.	16qqf#/LL	.	.	.
.	.	16qqg#/JJ	.	.	.
=187	=187	=187	=187	=187	=187
(4DD/ 4AA	.	4f#/) 4a	.	4A/	.
4F#\)	.	4A/ 4c#	.	4r	.
(4F#\	.	(4A/ 4c#	.	4r	.
=188	=188	=188	=188	=188	=188
*	*	*^	*	*	*
4FF#/)	.	4a/)	4f#/	.	4r	.
.	.	8qd#X/	.	p	.	.
4FFF#'/ 4FF#	.	(8c#/L	4A\	.	4r	.
.	.	8B#X/	.	.	.	.
4FF#'/ 4F#	.	8c#/	4A\	.	(4aa\	p
.	.	8dn/J	.	.	.	.
=189	=189	=189	=189	=189	=189	=189
!	!	!	!	!	!LO:TX:b:i:t=dolce	!
4CC#'/ 4C#	.	4e/)	4G#X/	.	4gg#X\)	.
.	.	8qf#/	.	.	.	.
4EE'/ 4E	.	(8e/L	4G#\	.	8gg#\L	.
.	.	8d#X/	.	.	8ff#\J	.
4BBB'/ 4BB	.	8e/	4G#\	.	[4ee\	.
.	.	8f#/J	.	.	.	.
=190	=190	=190	=190	=190	=190	=190
4AAA#X'/ 4AA#X	.	4gn/)	4e/	.	4ee\]	.
4CC#'/ 4C#	.	(2g^/	8e\L	.	8ggn\L	.
.	.	.	8d\	.	8ff#\	.
4AAA#'/ 4AA#	.	.	8c#\	.	8ee\	.
.	.	.	8e\J	.	(8gg\J	.
=191	=191	=191	=191	=191	=191	=191
4BBB'/ 4BB	.	4f#/)	4d\	.	8ff#\)	.
.	.	.	.	.	8r	.
4DD'/ 4D	.	[2f#^/	(8d\L	.	8ff#\L	.
.	.	.	8c#\	.	8ee\	.
4AAAn'/ 4AAn	.	.	8B\	.	8dd\	.
.	.	.	8c#\J	.	(8ee\J	.
=192	=192	=192	=192	=192	=192	=192
4GGG#X'/ 4GG#X	.	4f#/]	8d\L	>	8ff#\)	.
.	.	.	8c#\	.	8r	.
4EEE'/ 4EE	.	(2e/	8B\	]]	(2g#X^t/	.
.	.	.	8d\	.	.	.
4EE'/ 4E	.	.	8c#\	.	.	.
.	.	.	8B\J)	.	.	.
*	*	*v	*v	*	*	*
.	.	.	.	16qqf#/LL	.
.	.	.	.	16qqg#/JJ	.
!!LO:LB:g=original
=193	=193	=193	=193	=193	=193
*>B1	*	*>B1	*	*>B1	*
.	.	16qqc#/LL	.	.	.
.	.	16qqB/JJ	.	.	.
4AAA/ 4AA	.	8A/) 8e	.	2a/)	.
.	.	8r	.	.	.
4AAA/ 4AA	.	4A/	.	.	.
4AAA/ 4AA	.	4A/	.	4r	.
=194:|!	=194:|!	=194:|!	=194:|!	=194:|!	=194:|!
*>B2	*	*>B2	*	*>B2	*
.	.	16qqc#/LL	.	.	.
.	.	16qqB/JJ	.	.	.
4AAA/ 4AA	.	8A/ 8e	.	4a/	.
.	.	8r	.	.	.
4AAA/ 4AA	.	4A/	.	4r	.
4AAA/ 4AA	.	4A/	.	4a/	.
=195	=195	=195	=195	=195	=195
*>B	*	*>B	*	*>B	*
*^	*	*	*	*	*
8r	[2.CCn\	.	8r	.	(2aa\	.
!LO:TX:t=P:problem:mixed beam	!	!	!	!LO:DY:b	!	!
(8E/L	.	.	8ryy	p	.	.
8B-X/	.	.	4ryy	.	.	.
8e>\	.	.	.	.	.	.
8B-/	.	.	4ryy	.	4gg\)	.
8E/J)	.	.	.	.	.	.
=196	=196	=196	=196	=196	=196	=196
!LO:TX:t=P:problem:mixed beam	!	!	!	!	!	!
(8A/L	2.CC\]	.	2.ryy	.	(4ffn\	.
8fn>\	.	.	.	.	.	.
8A/	.	.	.	.	4ee\)	.
8Fn/	.	.	.	.	.	.
8A/	.	.	.	.	(4dd\	.
8f>\J)	.	.	.	.	.	.
=197	=197	=197	=197	=197	=197	=197
!LO:TX:t=P:problem:mixed beam	!	!	!	!	!	!
(8B-X/L	[2.CCn\	.	2.ryy	.	4ccn\)	.
8E/	.	.	.	.	.	.
8B-/	.	.	.	.	4dd\	.
8g>\	.	.	.	.	.	.
8B-/	.	.	.	.	4ee\	<
8E/J)	.	.	.	.	.	.
=198	=198	=198	=198	=198	=198	=198
!LO:TX:t=P:problem:mixed beam	!	!	!	!	!	!
(8A/L	2.CC\_	.	2.ryy	.	(4ffn~\	.
8cn>\	.	.	.	.	.	.
8fn>\	.	.	.	.	4gg~\	.
8c>\	.	.	.	.	.	.
8f>\	.	.	.	.	4aa~\)	[[
8a>\J)	.	.	.	.	.	.
!!LO:PB:g=original
=199	=199	=199	=199	=199	=199	=199
!	!	!	!LO:TX:b:i:t=espress.	!	!LO:TX:b:i:t=con espress.	!
.	.	.	(8qe/	.	8qaa/	.
4ryy	8CC\L]	.	2.ee\)	.	(2aaa\	.
.	(8e\	.	.	.	.	.
4cn/ 4an	8B-X\	.	.	.	.	.
.	8e\	.	.	.	.	.
4c/ 4g	8B-\	.	.	.	4ggg\)	.
.	8e\J)	.	.	.	.	.
=200	=200	=200	=200	=200	=200	=200
*	*	*	*^	*	*	*
4ryy	8Cn\L	.	4r	2.a/ 2.aa	.	4fffn\	.
.	(8cn\	.	.	.	.	.	.
4fn/	8A\	.	(4ffn\	.	.	(4fff\	.
.	8c\	.	.	.	.	.	.
4e/	8A\	.	4ee\)	.	.	4eee\)	.
.	8c\J)	.	.	.	.	.	.
=201	=201	=201	=201	=201	=201	=201	=201
4ryy	8BB\L	.	(4ccn\	2.dd#X/	.	(4ddd#X\	<
.	(8B\	.	.	.	.	.	.
4d#X/	8F#X\ 8A	.	4b\	.	.	4eee\)	.
.	8B\	.	.	.	.	.	.
4f#/	8F#\ 8A	.	4a\)	.	.	[4fff#\	[[
.	8B\J)	.	.	.	.	.	.
=202	=202	=202	=202	=202	=202	=202	=202
4ryy	8EE\L	.	(4ff#/	2.g#X\	.	4fff#\]	.
.	(8B\	.	.	.	.	.	.
4c#/	8E\ 8G#X	.	4ee/	.	.	4eee\	.
.	8B\	.	.	.	.	.	.
4d/	8E\ 8G#	.	4ddn/)	.	.	4dddn\	.
.	8B\J)	.	.	.	.	.	.
=203	=203	=203	=203	=203	=203	=203	=203
!	!	!	!LO:TX:b:i:t=cresc.	!	!	!LO:TX:b:i:t=cresc.	!
4ryy	8AA\L	.	(4cc#/	4b\	.	(4ccc#\	.
.	(8A\	.	.	.	.	.	.
4B/	8E\ 8Gn	.	4dd/	4a\	.	4ddd\)	.
.	8A\	.	.	.	.	.	.
4c#/	8E\ 8G	.	[4ee/	4gn\	.	[4eee\	.
.	8A\J)	.	.	.	.	.	.
=204	=204	=204	=204	=204	=204	=204	=204
4ryy	8DD\L	.	4ee/])	2.f#\	.	4eee\]	.
.	(8A\	.	.	.	.	.	.
4d/	8F#\	.	(4dd/	.	.	4ddd\	.
.	8A\	.	.	.	.	.	.
4e/	8F#\	.	4cc#/	.	.	(4ccc#\	.
.	8A#X\J)	.	.	.	.	.	.
*v	*v	*	*	*	*	*	*
!!LO:LB:g=original
=205	=205	=205	=205	=205	=205	=205
4GG/	.	4b/)	8f#\L	.	4bb\)	.
.	.	.	(8B\	.	.	.
(<4G\	.	(4b/	8c#\	.	(4bb\	.
.	.	.	8B\	.	.	.
4FF#X/	.	4a/	8d#X\	.	4dd#X\	.
.	.	.	8B\J	.	.	.
*	*	*v	*v	*	*	*
=206	=206	=206	=206	=206	=206
4EE/)	.	8e/L) 8g	.	4ee\)	.
.	.	(>8B/)	<	.	.
(4G\	.	8e/	.	4ff#\	.
.	.	8g/	.	.	.
4DD/	.	8a#X/	.	4gg\	.
.	.	8b/J	[	.	.
=207	=207	=207	=207	=207	=207
*^	*	*^	*	*	*
!LO:TX:t=P:problem:łuki	!	!	!	!	!	!	!
8CC#/L)	8ryy	.	4b/	2e\ 2g	.	8gg\	.
(<8C#/yy	(4.C#\	.	.	.	.	8r	.
(<8G/	.	.	4a/)	.	.	[2a/	.
(<[8A/J	.	.	.	.	.	.	.
(>4A/] (4e	(4C#\) (<4G)	.	8r	4ryy	.	.	.
.	.	.	(8gg/	.	.	.	.
*	*	*	*v	*v	*	*	*
=208	=208	=208	=208	=208	=208	=208
4A\) 4e)	8C#\) 8G)	.	8ee/L	.	2.a/_	<
.	8r	.	8a/	.	.	.
4r	4ryy	.	8g/	.	.	.
.	.	.	8e/	.	.	.
[4CC#/ [4AA	4ryy	.	8A/	.	.	.
.	.	.	8G/J	.	.	.
*v	*v	*	*	*	*	*
=209	=209	=209	=209	=209	=209
8CC#/] 8AA]	.	8F#/)	.	4a/]	[
8r	.	8r	.	.	.
*ped	*	*clefF4	*	*	*
4DD/ 4AA	.	4D\ 4F# 4A	.	4d/ 4f# 4a	ff
4DD/ 4AA	.	4D\ 4F# 4A	.	4d/ 4f# 4a	.
=210	=210	=210	=210	=210	=210
4DD/ 4AA	.	4D\ 4F# 4A	.	4d/ 4f# 4a	.
8r	.	4r	.	4d/ 4f# 4a	.
(8AA\L	.	.	.	.	.
*	*	*clefG2	*	*	*
8A\J)	.	8r	.	4d/ 4f# 4a	.
8r	.	(8A/L	.	.	.
=211	=211	=211	=211	=211	=211
*	*	*	*	*^	*
8r	.	8a/J)	.	4f#/ 4a	4d/	.
(8A\L	.	8r	.	.	.	.
8a\J)	.	8r	.	(8b/L	4d\	.
8r	.	(8a\L	.	8cc#/J	.	.
[4A\	.	8aa\J)	.	8dd/L	4d\	.
.	.	(8aa\	.	8ee/J)	.	.
*	*	*	*	*v	*v	*
!!LO:LB:g=original
=212	=212	=212	=212	=212	=212
8D\ 8A]	.	8aa\L) 8aaa	.	4d/ 4a 4ff#	.
*Xped	*	*	*	*	*
8r	.	(8ff#\ 8fff#	.	.	.
[2DD/ [2AA	.	8ee\) 8eee	.	4d/ 4a 4ff#	.
.	.	8dd'\ 8ddd	.	.	.
.	.	8cc#'\ 8ccc#	.	(>4dT/ 4b 4gg#X	.
.	.	8b'\J 8bb	.	.	.
.	.	.	.	16qqff#/LL	.
.	.	.	.	16qqgg#/JJ	.
=213	=213	=213	=213	=213	=213
8DD/] 8AA]	.	8a'/L 8aa	.	4d/) 4a 4aa	.
8r	.	(8f#/ 8ff#	.	.	.
[2DD/ [2AA	.	8e/) 8ee	.	4d/ 4a 4ff#	.
.	.	8d'/ 8dd	.	.	.
.	.	8c#'/ 8cc#	.	(4dT/ 4b 4gg#X	.
.	.	8B'/J 8b	.	.	.
.	.	.	.	16qqff#/LL	.
.	.	.	.	16qqgg#/JJ	.
=214	=214	=214	=214	=214	=214
8DD/] 8AA]	.	4A/ 4a	.	4d/ 4a 4aa	>
8r	.	.	.	.	.
8r	.	8r	.	4cc#\)	]
8B'\L	.	8e#X'/L	>	.	.
8A'\	.	8f#'/	.	4cc#\	.
8G#X'\J	.	8g#X'/J	]	.	.
=215	=215	=215	=215	=215	=215
!	!	!LO:TX:b:i:t=legg.	!	!	!
8F#'\L	.	8a'/L	.	4cc#\	.
8G#X'\	.	8b'/	.	.	.
.	.	.	.	8qdd#X/	p
8A'\	.	8cc#'/	.	(8cc#\L	.
8F#\	.	8r	.	8b#X\	.
8B'\	.	8d#X'/	.	8cc#\	.
8A'\J	.	8f#'/J	.	8dd#\J	.
=216	=216	=216	=216	=216	=216
8Gn'\L	.	8b'/L	.	4ee\)	.
8F#'\	.	8d#X'/	.	.	.
.	.	.	.	8qff#/	.
8E'\	.	8e'/	.	8ee\L	.
8A'\	.	8f#'/	.	8dd#X\	.
8G'\	.	8g'/	.	8ee\	.
8F#'\J	.	8a'/J	.	8ff#\J	.
=217	=217	=217	=217	=217	=217
*	*	*^	*	*	*
8E'\L	.	8b\	8b\yy	.	4ggn\	.
8F#'\	.	8r	8ryy	.	.	.
!	!	!	!	!LO:HP:a	!	!
8E'\	.	(2g/	8A#X'\L	<	(8gg\L	.
8D'\	.	.	8B'\	.	8ff#\)	.
8C#'\	.	.	8c#'\	.	8ee'\	.
8E'\J	.	.	8A#'\J	[[	8gg'\J	.
!!LO:LB:g=original
=218	=218	=218	=218	=218	=218	=218
8D'/L	.	8f#/)	4B/	.	4ff#\	.
8C#'/	.	8r	.	.	.	.
8BB'/	.	2f#/	8d'\L	.	8ff#\L	.
8C#'/	.	.	8c#'\	.	8ee\	.
8D'/	.	.	8B'\	.	8dd\	.
8BB'/J	.	.	8d'\J	.	8ff#\J	.
=219	=219	=219	=219	=219	=219	=219
8GG'/L	.	8b\	4rF	.	4ee\	.
8FF#'/	.	8r	.	.	.	.
(8GG/	p	4ryy	(<8B\L	.	8ee\L	>
8EE/J)	.	.	8G\)	.	8gg\	.
(4AA/	.	(4c#/	(8A\	.	8ff#\	.
.	.	.	8G\J)	.	8ee\J	]
=220	=220	=220	=220	=220	=220	=220
4D\)	.	4d/)	4F#/	.	4dd\	.
4DD/	.	4r	4ryy	.	4r	.
4r	.	4a/	4ryy	.	4r	.
*	*	*v	*v	*	*	*
=221	=221	=221	=221	=221	=221
.	.	8qdd/	.	.	.
!	!	!LO:TX:b:i:t=espress.	!	!	!
8FFn\L	.	(2dd\ 2ddd	.	(2.e-X/ 2.a	p
(8fn\	.	.	.	.	.
8e-X\	.	.	.	.	.
8A\	.	.	.	.	.
8Fn\)	.	4ccn\ 4cccn	.	.	.
(8F\J	.	.	.	.	.
=222	=222	=222	=222	=222	=222
4FFn/)	.	4b-X\ 4bb-X	.	2.d/) 2.b-X	.
8r	.	4a\ 4aa	.	.	.
(8fn\L	.	.	.	.	.
8d\	.	4g\) 4gg	.	.	.
8B-X\J	.	.	.	.	.
=223	=223	=223	=223	=223	=223
8Fn\L	.	(4fn\ 4ffn	.	(2.e-X/ 2.a	.
8fn\	.	.	.	.	.
8e-X\	.	4g\ 4gg	.	.	.
8A\	.	.	.	.	.
8F\)	.	4a\ 4aa	.	.	.
(8F\J	.	.	.	.	.
=224	=224	=224	=224	=224	=224
4FFn/)	.	4b-X\ 4bb-X	.	2d/) 2b-X	.
8r	.	4ccn\ 4cccn	.	.	.
(8fn\L	.	.	.	.	.
!	!	!	!	!LO:TX:b:i:t=espress.	!
8d\	.	4dd\) 4ddd	.	(4bb-X\	.
8B-X\J	.	.	.	.	.
!!LO:LB:g=original
=225	=225	=225	=225	=225	=225
8Fn\L	.	(2dd\ 2ddd	.	4aa\)	.
8fn\	.	.	.	.	.
8e-X\	.	.	.	4gg\	.
8A\	.	.	.	.	.
8F\)	.	4ccn\ 4cccn	.	4aa\	.
(8F\J	.	.	.	.	.
=226	=226	=226	=226	=226	=226
4FFn/)	.	4b-X\) 4bb-X	.	((4bb-X\	.
8r	.	(4b-\ 4bb-	.	4ddd\)	.
(8fn\L	.	.	.	.	.
8d\	.	4a\ 4aa	.	4ddd'\)	.
8B-X\J	.	.	.	.	.
=227	=227	=227	=227	=227	=227
8E\L	.	4g#X\ 4gg#X	.	(4ddd\	.
8e\	.	.	.	.	.
8d\	.	4a\ 4aa	.	4dd\)	.
8B\	.	.	.	.	.
8E\)	.	[4bn\ [4bbn	.	4dd\	.
(8E\J	.	.	.	.	.
=228	=228	=228	=228	=228	=228
*	*	*^	*	*	*
4EE-X/)	.	4bn\]) 4bb]	2.cc#/	.	(4ccn\	.
8r	.	(4a\ 4aa	.	.	4cccn\)	.
(8e-X\L	.	.	.	.	.	.
8cn\	.	4g\ 4gg	.	.	4ccc\	>
8A\J	.	.	.	.	.	.
*	*	*v	*v	*	*	*
=229	=229	=229	=229	=229	=229
8D\L	.	4f#\ 4ff#	.	(4cccn\	.
8d\	.	.	.	.	.
8cn\	.	4g\ 4gg	.	4ccn\)	.
8A\	.	.	.	.	.
8D\)	.	[4a\ [4aa	.	4cc\	]
(8D\J	.	.	.	.	.
=230	=230	=230	=230	=230	=230
*	*	*^	*	*	*
4DD-X/)	.	4a\]) 4aa]	2.b-X/	p	(4b-X\	p
8r	.	(4g\ 4gg	.	.	4bb-X\)	.
(8d-X\L	.	.	.	.	.	.
8B-X\	.	4fn\ 4ffn	.	.	4bb-\	.
8G\J	.	.	.	.	.	.
*	*	*v	*v	*	*	*
=231	=231	=231	=231	=231	=231
8Cn\L	.	4e/ 4ee	.	4bb-X\	.
8cn\	.	.	.	.	.
8B-X\	.	4fn\ 4ffn	.	4r	.
8E\	.	.	.	.	.
8C\)	.	[4g\ [4gg	.	4r	.
(8C\J	.	.	.	.	.
!!LO:PB:g=original
=232	=232	=232	=232	=232	=232
*	*	*^	*	*	*
4CC#X/)	.	4g\] 4gg]	2b-X/	.	4r	.
!	!	!LO:TX:b:i:t=cresc.	!	!	!LO:TX:b:i:t=cresc.	!
8r	.	4ee\)	.	.	(4b-X\	.
(8e\L	.	.	.	.	.	.
8B-X\	.	([4g^\ [4gg	4ryy	.	4bb-X\)	.
8G\J	.	.	.	.	.	.
=233	=233	=233	=233	=233	=233	=233
4BBn/)	.	4g\] 4gg]	2bn/	.	4r	.
8r	.	4ee\)	.	.	(4bn\	.
(8e\L	.	.	.	.	.	.
8Bn\	.	([4g^\ [4gg	4ryy	.	4bbn\)	.
8G\J	.	.	.	.	.	.
=234	=234	=234	=234	=234	=234	=234
8BB-X\L	.	4g\] 4gg]	2cc#/	.	4r	.
8c#X\	.	.	.	.	.	.
8G\	.	4ee\)	.	.	(4cc#\	.
8E\	.	.	.	.	.	.
8BB-\)	.	[4g^\ [4gg	4ryy	.	8.aa\L)	.
(8BB-\J	.	.	.	.	.	.
.	.	.	.	.	16aa\Jk	.
*	*	*v	*v	*	*	*
=235	=235	=235	=235	=235	=235
8AAA/)	.	4g\_ [4cc# 4gg_	.	[2.ggg\	f
8r	.	.	.	.	.
[2AA\ [2E [2G [2c#	.	8g\L] 8cc#] 8gg]	.	.	.
.	.	8ee'\	.	.	.
.	.	8cc#'\	.	.	.
.	.	8b'\J	.	.	.
=236	=236	=236	=236	=236	=236
4AA\] 4E] 4G] 4c#]	.	8g'/L	.	2.ggg\_	.
.	.	8e'/	.	.	.
4r	.	8c#'/	.	.	.
.	.	8B-X'/	.	.	.
4r	.	8A'/	.	.	.
.	.	8G#X'/J	.	.	.
=237	=237	=237	=237	=237	=237
2.r	.	8A/	.	8ggg\L]	.
.	.	8r	.	8eee^\	.
.	.	4r	.	8ccc#\	.
.	.	.	.	8bb-X\	.
.	.	4r	.	8gg\	.
.	.	.	.	8ee\J	.
=238	=238	=238	=238	=238	=238
2.r	.	2.r	.	8cc#/L	>
.	.	.	.	8b-X/	.
.	.	.	.	8g/	.
.	.	.	.	8e/	.
.	.	.	.	8c#/	.
.	.	.	.	8B-X/J	]
!!LO:LB:g=original
=239	=239	=239	=239	=239	=239
4r	.	4r	.	8A'/L	.
.	.	.	.	8c#'/	.
!	!	!	!	!LO:TX:b:i:t=calando	!
4AAA'/ 4AA	.	4G/ 4c# 4e	p	8e'/	.
.	.	.	.	8fn'/	.
4r	.	4r	.	8g'/	.
.	.	.	.	8c#'/J	.
=240	=240	=240	=240	=240	=240
4r	.	4r	.	8e'/L	.
.	.	.	.	8fn'/	.
4BBB-X'/ 4BB-X	.	4c#'/ 4e 4g	.	8g'/	.
.	.	.	.	8c#'/	.
4r	.	4r	.	8d'/	.
.	.	.	.	8e'/J	.
=241	=241	=241	=241	=241	=241
4r	.	4r	.	8fn'/L	.
.	.	.	.	8g'/	.
4BBBn'/ 4BBn	.	4d'/ 4fn 4g#X	.	8a-X'/	.
.	.	.	.	8e'/	.
4r	.	4r	.	8f'/	.
.	.	.	.	8g'/J	.
=242	=242	=242	=242	=242	=242
4r	.	4r	.	8fn'/L	>
.	.	.	.	8g'/	.
!	!	!LO:TX:b:i:t=rit.	!	!LO:TX:a:i:t=rit.	!
(4BBB-X'/ 4BB-X	.	(4d'/ 4g#X 4dd	pp	8a-X'/	.
.	.	.	.	(8f'/	.
4BB-'\) 4B-X	.	4d'/) 4g# 4dd	.	8g'/	.
.	.	.	.	8g#X'/J)	]]
=243||	=243||	=243||	=243||	=243||	=243||
*k[b-]	*	*k[b-]	*	*k[b-]	*
!	!	!LO:TX:a:B:t=Tempo I	!	!LO:TX:a:B:t=Tempo I.	!
8AA\ 8A	.	8e/ 8a 8cc#X	.	(2.a/	.
8r	.	8r	.	.	.
.	.	8qbn/	.	.	.
4r	.	(>8a/L	.	.	.
.	.	8g#X/	pp	.	.
4r	.	8a/	.	.	.
.	.	8b/J	.	.	.
=244	=244	=244	=244	=244	=244
*	*	*^	*	*	*
4r	.	2ccn/	4r	.	2aao\	.
(4A'\	.	.	8e\L	.	.	.
.	.	.	8f#X\J	.	.	.
4E'\	.	4bn/	([4g\	.	4gg\)	.
=245	=245	=245	=245	=245	=245	=245
4C'/	.	4.a/)	8g\L]	.	4r	.
.	.	.	8e\	.	.	.
.	.	.	.	.	8qbn/	.
4AA'/	.	.	8c\	.	8a/L	.
.	.	8ryy	8e\	.	8g#X/	.
4C'/)	.	4ryy	8g\	.	8a/	.
.	.	.	8e\J	.	8b/J	.
=246	=246	=246	=246	=246	=246	=246
4D\	.	(4f#X/	8c\L	.	8a/L	.
.	.	.	8d\J	.	8bn/J	.
8GG/	.	8g/)	8Bn\L)	.	2g/	.
8r	.	8ryy	(8d\	.	.	.
4r	.	4ryy	8e\	.	.	.
.	.	.	8f#\J	.	.	.
*	*	*v	*v	*	*	*
!!LO:LB:g=original
=247	=247	=247	=247	=247	=247
2.r	.	8g\)	<	(2.gg\	.
.	.	8r	.	.	.
.	.	8qa/	.	.	.
.	.	(>8g/L	.	.	.
.	.	8f#X/	.	.	.
.	.	8g/	.	.	.
.	.	8a/J	.	.	.
=248	=248	=248	=248	=248	=248
*	*	*^	*	*	*
4r	.	2b-/	4r	.	4g/)	.
(4E'\	.	.	4d\	[	4r	.
4AA'/	.	8a/L	[4c#X\	.	4c#X^/	.
.	.	8g/J	.	.	.	.
=249	=249	=249	=249	=249	=249	=249
4D'\	.	8f/)	8c#\]	.	(8f/L	>
.	.	8r	8ryy	.	8e/)	.
.	.	8qg/	.	>	.	.
4BB-'/	.	8f/L	4d\	.	8d/	.
.	.	8e/	.	.	8c#X/	]
4GG'/	.	8f/	4d\	]	(8d/	.
.	.	8g/J	.	.	8B-/J	.
=250	=250	=250	=250	=250	=250	=250
*^	*	*	*	*	*	*
8AA'/)	4ryy	.	8e/L	4G\ 4c#X	.	8.A/L	.
8r	.	.	8f/J	.	.	.	.
.	.	.	.	.	.	32Bn/LL	.
.	.	.	.	.	.	32c#X/JJJ	.
*	*	*	*clefF4	*	*	*	*
!	!	!	!LO:TX:b:i:t=un poco rilevato	!	!	!	!
8qBBn/	.	.	.	.	.	.	.
8AA/L	[2DD\	.	4cn\	[2F/ [>2d	.	8d/)	.
8GG#X/	.	.	.	.	.	8r	.
8AA/	.	.	4Bn\	.	.	4r	.
8BB/J	.	.	.	.	.	.	.
=251	=251	=251	=251	=251	=251	=251	=251
2C/	2.DD\_	.	2.d/]	4F\] 4A	.	4r	.
.	.	.	.	.	.	8qee/	pp
.	.	.	.	[4D\	.	8dd\L	.
.	.	.	.	.	.	8cc#X\	.
4BBn/	.	.	.	4D\] 4G	.	8dd\	.
.	.	.	.	.	.	8ee\J	.
=252	=252	=252	=252	=252	=252	=252	=252
4AA/	2.DD\_	.	[2.D/ [2.d	2.c\	.	[2.dd\	.
8qBBn/	.	.	.	.	.	.	.
8AA/L	.	.	.	.	.	.	.
8GG#X/	.	.	.	.	.	.	.
8AA/	.	.	.	.	.	.	.
8BB/J	.	.	.	.	.	.	.
=253	=253	=253	=253	=253	=253	=253	=253
8AA/L	2.DD\_	.	2.D/] 2.d]	4c\	.	4dd\]	.
8BBn/J	.	.	.	.	.	.	.
.	.	.	.	.	.	8qee/	.
[2GG/	.	.	.	(>4Bn\	.	8dd\L	.
.	.	.	.	.	.	8cc#X\	.
.	.	.	.	4D\)	.	8dd\	.
.	.	.	.	.	.	8ee\J	.
*	*	*	*v	*v	*	*	*
!!LO:LB:g=original
=254	=254	=254	=254	=254	=254	=254
4GG/]	2.DD\_	.	[2.D\ [<2.B-X 2.d	<	[2.dd\	.
8qAA/	.	.	.	.	.	.
8GG/L	.	.	.	.	.	.
8FF#X/	.	.	.	.	.	.
8GG/	.	.	.	.	.	.
8AA/J	.	.	.	[	.	.
=255	=255	=255	=255	=255	=255	=255
*	*	*	*^	*	*	*
2BB-/	2.DD\_	.	4D\] 4B-]	2.d/	.	4dd\]	.
.	.	.	.	.	.	8qee/	.
.	.	.	(4D\	.	.	8dd\L	.
.	.	.	.	.	.	8cc#X\J	.
8GG/L	.	.	8B-\L	.	.	[4dd\	.
8FF/J	.	.	8A\J)	.	.	.	.
*	*	*	*v	*v	*	*	*
=256	=256	=256	=256	=256	=256	=256
!	!	!	!LO:TX:b:i:t=cresc. un poco	!	!	!
4.EE/	2.DD\_	.	[2.D\ [2.G#X [2.d	.	8dd\L]	<
.	.	.	.	.	8ee\	.
.	.	.	.	.	8dd\	.
8EE/L	.	.	.	.	8cc#X\	.
8GG#X/	.	.	.	.	8dd\	.
8C/J	.	.	.	.	8ee\J	.
=257	=257	=257	=257	=257	=257	=257
8.BBn/L	2.DD\_	.	2.D\] 2.G#] 2.d]	.	8ff\L	.
.	.	.	.	.	8ee\	.
16BB/Jk	.	.	.	.	.	.
4EE/	.	.	.	.	8dd\	.
.	.	.	.	.	8cc#X\	.
4BB-X/	.	.	.	.	8dd\	[
.	.	.	.	.	8g#X\J	.
=258	=258	=258	=258	=258	=258	=258
4.AA/	2.DD\_	.	[2.E\ [2.Gn [2.c#X	pp	[2.a/	pp < [[
8BBn/L	.	<	.	.	.	.
8AA/	.	.	.	.	.	.
8GG#X/J	.	[[	.	.	.	.
=259	=259	=259	=259	=259	=259	=259
8AA/L	2.DD\_	.	2.E\_ 2.G_ 2.c#_	.	2.a/_	>]
8BBn/	.	>	.	.	.	.
8AA/	.	.	.	.	.	.
8GG#X/	.	.	.	.	.	.
8AA/	.	.	.	.	.	.
8BB/J	.	]	.	.	.	.
=260	=260	=260	=260	=260	=260	=260
8AA/	4DD/]	.	8E\] 8G] 8c#]	.	8a'\L]	.
8r	.	.	8r	.	8a'\	.
*	*	*	*clefG2	*	*	*
[2AA/	[2DD/	.	[2c#X^/ [2e [2g	.	8cc#X'\	.
.	.	.	.	.	8ee'\	.
.	.	.	.	.	8gg'\	.
.	.	.	.	.	8bbn'\J	.
!!LO:LB:g=original
=261	=261	=261	=261	=261	=261	=261
4AA/]	4DD/]	.	4c#X/] 4e] 4g]	.	8aa'\L	.
.	.	.	.	.	8bbn'\	.
[2AA/	[2DD/	.	(2e/ 2g 2cc#X	.	8aa'\	.
.	.	.	.	.	8gg#X'\	.
.	.	.	.	.	8aa'\	.
.	.	.	.	.	8ee'\J	.
*v	*v	*	*	*	*	*
=262	=262	=262	=262	=262	=262
*ped	*	*	*	*	*
4DD/] 4AA]	.	4d/))) 4f#X 4dd	.	4ff#X\	.
8r	.	8r	.	8r	.
(<8F#X\L	.	(8d/L	<	8A/L	<
8A\	.	8f#/	.	8d/	.
8d\J	.	8a/J	.	8f#X/J	.
*clefG2	*	*	*	*	*
=263	=263	=263	=263	=263	=263
8f#X\L	.	8dd\L	.	8a\L	.
8a\	.	8ff#X\	.	8dd\	.
8dd\	.	8aa\	.	8ff#X\	.
8ff#X\	.	8ddd\	.	8aa\	.
8aa\	.	8fff#X\	.	8ddd\	.
8ddd\J)	.	8aaa\J)	[	8fff#X\J	[[
=264	=264	=264	=264	=264	=264
(8aa\L	.	(8fff#X\L	>	8ddd\L	>
8ff#X\	.	8ddd\	.	8aa\	.
8dd\	.	8aa\	.	8ff#X\	.
8a\	.	8ff#X\	.	8dd\	.
8f#X\	.	8dd\	.	8a\	.
8d\J	.	8ee\J	.	8aa\J	.
=265	=265	=265	=265	=265	=265
8dd\L	.	8aa\L	]	8ff#X/L	]
8a\	.	8ff#X\	.	8dd/	.
8f#X\	.	8dd\	.	8a/	.
8d\	.	8a\	.	8f#X/	.
*clefF4	*	*	*	*	*
8A\	.	8f#X\	.	8d/	.
8F#X\J)	.	8d\J)	.	8A/J	.
=266	=266	=266	=266	=266	=266
!	!	!	!	!LO:TX:a:i:t=sul D	!
8D\	.	8f#X/ 8a	.	8d/L	pp
8r	.	8r	.	8f#X/	.
4r	.	4r	.	8a/	.
.	.	.	.	8d/	.
4r	.	4r	.	8f#/	.
.	.	.	.	8a/J	.
*clefG2	*	*	*	*	*
=267	=267	=267	=267	=267	=267
[2.d/ [2.a	.	[2.dd\ [2.ff#X	pp	[2.ddo\	.
=268	=268	=268	=268	=268	=268
2.d/] 2.a]	.	2.dd\] 2.ff#]	.	2.dd\]	.
*Xped	*	*	*	*	*
==	==	==	==	==	==
*-	*-	*-	*-	*-	*-
!!!RDF**kern: N = linked
!!!RDF**kern: < = below
!!!RDF**kern: > = above
!!!system-decoration: [(s1)]{(s2,s3)}
!!!ENC: Marta Opryszak
!!!END: 2022-03-23
!!!AIN: 1 piano 1 violn
!!!ENC: Urszula Świątek
!!!END: 2022-03-27
